cave_demo/assets/luts/slog2sg_to_rec709_STARCentral.002.cube
TITLE "yummySLOG_lut"
LUT_3D_SIZE 8
DOMAIN_MIN 0.000000 0.000000 0.000000
DOMAIN_MAX 0.903226 0.903226 0.903226
0.0000 0.0000 0.0000
0.0357 0.0019 0.0013
0.2916 0.0218 0.0150
0.4840 0.0387 0.0267
0.6107 0.0500 0.0345
0.7073 0.0613 0.0424
0.7688 0.0706 0.0488
0.8009 0.0746 0.0516
0.0044 0.0248 0.0027
0.0260 0.0248 0.0027
0.2850 0.0276 0.0150
0.4823 0.0387 0.0267
0.6084 0.0500 0.0345
0.7073 0.0613 0.0424
0.7688 0.0706 0.0488
0.8009 0.0746 0.0516
0.0699 0.2582 0.0425
0.0656 0.2538 0.0399
0.2671 0.2493 0.0490
0.5025 0.2249 0.0536
0.6201 0.1371 0.0476
0.7045 0.0650 0.0424
0.7688 0.0706 0.0488
0.8009 0.0746 0.0516
0.0790 0.4942 0.0481
0.0790 0.4942 0.0481
0.1105 0.4861 0.0481
0.5034 0.4902 0.0401
0.7023 0.4582 0.0336
0.8114 0.3605 0.0396
0.7840 0.1080 0.0488
0.8009 0.0746 0.0516
0.0468 0.6749 0.0284
0.0468 0.6735 0.0284
0.0468 0.6705 0.0284
0.2431 0.6712 0.0238
0.6741 0.6676 0.0069
0.8424 0.6373 0.0024
0.9302 0.5620 0.0083
0.8628 0.2192 0.0422
0.0103 0.8176 0.0063
0.0103 0.8176 0.0063
0.0103 0.8142 0.0063
0.0103 0.8134 0.0063
0.4280 0.8108 0.0000
0.8030 0.8005 0.0000
0.9283 0.7793 0.0000
0.9804 0.7220 0.0000
0.0000 0.9160 0.0000
0.0000 0.9160 0.0000
0.0000 0.9160 0.0000
0.0000 0.9160 0.0000
0.0000 0.9140 0.0000
0.5989 0.9095 0.0000
0.9009 0.9029 0.0000
0.9756 0.8886 0.0000
0.0000 0.9695 0.0000
0.0000 0.9695 0.0000
0.0000 0.9695 0.0000
0.0000 0.9695 0.0000
0.0000 0.9689 0.0000
0.0043 0.9689 0.0000
0.7396 0.9657 0.0000
0.9617 0.9625 0.0000
0.0000 0.0000 0.0112
0.0357 0.0019 0.0144
0.2916 0.0218 0.0255
0.4840 0.0387 0.0333
0.6107 0.0500 0.0385
0.7073 0.0613 0.0424
0.7688 0.0706 0.0488
0.8009 0.0746 0.0516
0.0044 0.0229 0.0144
0.0238 0.0209 0.0144
0.2831 0.0276 0.0236
0.4823 0.0387 0.0320
0.6084 0.0500 0.0372
0.7073 0.0613 0.0424
0.7688 0.0706 0.0488
0.8009 0.0746 0.0516
0.0656 0.2538 0.0439
0.0656 0.2520 0.0439
0.2632 0.2475 0.0504
0.5001 0.2212 0.0543
0.6179 0.1343 0.0476
0.7045 0.0633 0.0424
0.7688 0.0706 0.0488
0.8009 0.0746 0.0516
0.0790 0.4942 0.0481
0.0790 0.4925 0.0481
0.1105 0.4861 0.0481
0.5034 0.4885 0.0401
0.7023 0.4559 0.0336
0.8108 0.3597 0.0396
0.7825 0.1080 0.0488
0.8009 0.0746 0.0516
0.0468 0.6735 0.0284
0.0468 0.6735 0.0284
0.0468 0.6705 0.0284
0.2420 0.6697 0.0238
0.6741 0.6660 0.0069
0.8424 0.6373 0.0024
0.9302 0.5620 0.0095
0.8628 0.2192 0.0422
0.0103 0.8176 0.0063
0.0103 0.8174 0.0063
0.0103 0.8142 0.0063
0.0103 0.8134 0.0063
0.4247 0.8108 0.0000
0.8030 0.8005 0.0000
0.9283 0.7793 0.0000
0.9804 0.7205 0.0000
0.0000 0.9160 0.0000
0.0000 0.9160 0.0000
0.0000 0.9160 0.0000
0.0000 0.9153 0.0000
0.0000 0.9140 0.0000
0.5975 0.9095 0.0000
0.9009 0.9029 0.0000
0.9756 0.8886 0.0000
0.0000 0.9695 0.0000
0.0000 0.9695 0.0000
0.0000 0.9695 0.0000
0.0000 0.9695 0.0000
0.0000 0.9689 0.0000
0.0035 0.9689 0.0000
0.7396 0.9657 0.0000
0.9617 0.9625 0.0000
0.0044 0.0038 0.1313
0.0282 0.0067 0.1333
0.2916 0.0265 0.1452
0.4872 0.0434 0.1557
0.6114 0.0556 0.1587
0.7107 0.0660 0.1480
0.7721 0.0727 0.1205
0.8009 0.0746 0.0602
0.0066 0.0115 0.1313
0.0163 0.0105 0.1313
0.2802 0.0265 0.1431
0.4832 0.0434 0.1543
0.6114 0.0556 0.1557
0.7105 0.0660 0.1478
0.7721 0.0727 0.1171
0.8009 0.0746 0.0602
0.0656 0.2404 0.1609
0.0656 0.2367 0.1609
0.2536 0.2314 0.1673
0.4953 0.2031 0.1707
0.6166 0.1126 0.1529
0.7073 0.0659 0.1346
0.7700 0.0706 0.1041
0.8009 0.0746 0.0575
0.0790 0.4902 0.1621
0.0790 0.4878 0.1621
0.1032 0.4797 0.1613
0.4995 0.4797 0.1528
0.7023 0.4476 0.1394
0.8083 0.3424 0.1198
0.7800 0.0980 0.0816
0.8009 0.0746 0.0516
0.0468 0.6712 0.0912
0.0468 0.6712 0.0912
0.0468 0.6676 0.0885
0.2314 0.6676 0.0784
0.6706 0.6632 0.0518
0.8424 0.6329 0.0281
0.9302 0.5550 0.0151
0.8603 0.2083 0.0442
0.0103 0.8142 0.0088
0.0103 0.8142 0.0088
0.0103 0.8142 0.0088
0.0103 0.8108 0.0088
0.4203 0.8107 0.0006
0.8005 0.8005 0.0000
0.9283 0.7759 0.0000
0.9804 0.7184 0.0000
0.0000 0.9160 0.0000
0.0000 0.9160 0.0000
0.0000 0.9160 0.0000
0.0000 0.9145 0.0000
0.0000 0.9127 0.0000
0.5937 0.9095 0.0000
0.9009 0.9029 0.0000
0.9756 0.8886 0.0000
0.0000 0.9695 0.0000
0.0000 0.9695 0.0000
0.0000 0.9695 0.0000
0.0000 0.9689 0.0000
0.0000 0.9689 0.0000
0.0034 0.9689 0.0000
0.7370 0.9657 0.0000
0.9617 0.9625 0.0000
0.0107 0.0094 0.2813
0.0215 0.0105 0.2822
0.2802 0.0313 0.2974
0.4880 0.0481 0.3112
0.6143 0.0622 0.3185
0.7141 0.0716 0.3226
0.7768 0.0800 0.3103
0.8119 0.0800 0.2746
0.0107 0.0094 0.2813
0.0129 0.0094 0.2813
0.2717 0.0303 0.2965
0.4832 0.0481 0.3103
0.6143 0.0622 0.3185
0.7141 0.0716 0.3194
0.7768 0.0800 0.3095
0.8119 0.0800 0.2731
0.0634 0.2022 0.3145
0.0624 0.1985 0.3136
0.2302 0.1875 0.3179
0.4857 0.1568 0.3269
0.6120 0.0834 0.3176
0.7107 0.0716 0.3144
0.7761 0.0800 0.3030
0.8087 0.0800 0.2669
0.0779 0.4780 0.3728
0.0779 0.4764 0.3728
0.0916 0.4675 0.3685
0.4915 0.4649 0.3806
0.6996 0.4261 0.3772
0.8058 0.3134 0.3572
0.7825 0.0930 0.2924
0.8087 0.0800 0.2474
0.0415 0.6698 0.3547
0.0415 0.6690 0.3547
0.0415 0.6662 0.3520
0.2085 0.6626 0.3478
0.6685 0.6565 0.3359
0.8406 0.6262 0.3209
0.9321 0.5424 0.2932
0.8617 0.1960 0.2189
0.0042 0.8142 0.2578
0.0042 0.8142 0.2576
0.0052 0.8141 0.2546
0.0052 0.8108 0.2508
0.4103 0.8074 0.2386
0.7998 0.7971 0.2188
0.9283 0.7725 0.1780
0.9803 0.7142 0.0913
0.0000 0.9160 0.0426
0.0000 0.9153 0.0426
0.0000 0.9145 0.0408
0.0000 0.9145 0.0376
0.0000 0.9127 0.0344
0.5879 0.9095 0.0221
0.9009 0.9029 0.0104
0.9756 0.8858 0.0019
0.0000 0.9695 0.0000
0.0000 0.9695 0.0000
0.0000 0.9689 0.0000
0.0000 0.9689 0.0000
0.0000 0.9689 0.0000
0.0024 0.9689 0.0000
0.7350 0.9657 0.0000
0.9617 0.9625 0.0000
0.0161 0.0142 0.4185
0.0161 0.0142 0.4185
0.2554 0.0313 0.4367
0.4823 0.0528 0.4560
0.6166 0.0641 0.4671
0.7174 0.0782 0.4737
0.7918 0.0800 0.4811
0.8284 0.0800 0.4744
0.0161 0.0142 0.4185
0.0161 0.0142 0.4185
0.2437 0.0313 0.4358
0.4783 0.0528 0.4541
0.6143 0.0641 0.4671
0.7174 0.0782 0.4737
0.7903 0.0800 0.4811
0.8284 0.0800 0.4744
0.0419 0.1053 0.4367
0.0409 0.1017 0.4367
0.1655 0.0845 0.4403
0.4587 0.0740 0.4559
0.6077 0.0659 0.4642
0.7142 0.0754 0.4699
0.7885 0.0800 0.4793
0.8280 0.0800 0.4699
0.0779 0.4426 0.5496
0.0779 0.4419 0.5486
0.0853 0.4319 0.5449
0.4721 0.4244 0.5738
0.6900 0.3761 0.5765
0.7831 0.2375 0.5419
0.7899 0.0838 0.4764
0.8273 0.0800 0.4634
0.0415 0.6589 0.5876
0.0415 0.6589 0.5876
0.0415 0.6552 0.5847
0.1741 0.6515 0.5857
0.6636 0.6418 0.5893
0.8394 0.6082 0.5847
0.9302 0.5138 0.5717
0.8660 0.1645 0.4797
0.0000 0.8108 0.5605
0.0000 0.8108 0.5605
0.0000 0.8087 0.5597
0.0000 0.8068 0.5588
0.3897 0.8019 0.5542
0.7967 0.7917 0.5476
0.9271 0.7669 0.5345
0.9798 0.7027 0.5055
0.0000 0.9140 0.4764
0.0000 0.9140 0.4764
0.0000 0.9127 0.4727
0.0000 0.9127 0.4718
0.0000 0.9121 0.4672
0.5811 0.9076 0.4561
0.9009 0.9011 0.4359
0.9756 0.8847 0.3906
0.0000 0.9689 0.1629
0.0000 0.9689 0.1629
0.0000 0.9689 0.1606
0.0000 0.9689 0.1558
0.0000 0.9689 0.1473
0.0012 0.9689 0.1285
0.7282 0.9657 0.1017
0.9617 0.9625 0.0716
0.0215 0.0189 0.5463
0.0215 0.0189 0.5463
0.1825 0.0311 0.5584
0.4652 0.0530 0.5843
0.6128 0.0688 0.5955
0.7210 0.0800 0.6114
0.7995 0.0800 0.6294
0.8392 0.0800 0.6339
0.0215 0.0189 0.5463
0.0215 0.0189 0.5463
0.1701 0.0293 0.5583
0.4604 0.0528 0.5799
0.6115 0.0688 0.5955
0.7210 0.0800 0.6114
0.7995 0.0800 0.6294
0.8392 0.0800 0.6339
0.0215 0.0189 0.5462
0.0215 0.0189 0.5462
0.0650 0.0225 0.5500
0.4331 0.0528 0.5770
0.6027 0.0688 0.5927
0.7176 0.0800 0.6068
0.7995 0.0800 0.6277
0.8387 0.0800 0.6304
0.0844 0.3442 0.6471
0.0845 0.3398 0.6469
0.0845 0.3250 0.6389
0.4147 0.3100 0.6746
0.6432 0.2394 0.6745
0.7313 0.1210 0.6291
0.7970 0.0800 0.6249
0.8387 0.0800 0.6294
0.0435 0.6322 0.7541
0.0435 0.6321 0.7517
0.0437 0.6277 0.7517
0.1232 0.6195 0.7527
0.6469 0.6082 0.7696
0.8331 0.5644 0.7694
0.9198 0.4387 0.7517
0.8498 0.1086 0.6375
0.0000 0.8007 0.7629
0.0000 0.8005 0.7629
0.0000 0.8005 0.7629
0.0000 0.7971 0.7629
0.3357 0.7917 0.7629
0.7934 0.7800 0.7588
0.9254 0.7537 0.7549
0.9798 0.6803 0.7473
0.0000 0.9095 0.7374
0.0000 0.9095 0.7374
0.0000 0.9095 0.7374
0.0000 0.9095 0.7374
0.0000 0.9076 0.7351
0.5662 0.9043 0.7333
0.8978 0.8977 0.7291
0.9751 0.8787 0.7174
0.0000 0.9689 0.6749
0.0000 0.9689 0.6749
0.0000 0.9689 0.6713
0.0000 0.9689 0.6713
0.0000 0.9689 0.6705
0.0000 0.9657 0.6667
0.7127 0.9657 0.6580
0.9612 0.9625 0.6418
0.0268 0.0236 0.6490
0.0268 0.0236 0.6490
0.0431 0.0236 0.6515
0.4176 0.0528 0.6790
0.6011 0.0706 0.6938
0.7230 0.0800 0.7173
0.8072 0.0800 0.7414
0.8468 0.0779 0.7513
0.0268 0.0236 0.6490
0.0268 0.0236 0.6490
0.0410 0.0236 0.6515
0.4125 0.0519 0.6781
0.6004 0.0706 0.6938
0.7229 0.0800 0.7173
0.8072 0.0800 0.7414
0.8468 0.0779 0.7513
0.0268 0.0236 0.6470
0.0268 0.0236 0.6470
0.0268 0.0236 0.6470
0.3709 0.0492 0.6736
0.5924 0.0688 0.6938
0.7184 0.0800 0.7155
0.8058 0.0800 0.7414
0.8468 0.0779 0.7513
0.0375 0.0706 0.6604
0.0363 0.0685 0.6604
0.0334 0.0558 0.6569
0.2535 0.0575 0.6702
0.5716 0.0735 0.6948
0.7103 0.0800 0.7130
0.8040 0.0800 0.7414
0.8463 0.0779 0.7497
0.0565 0.5542 0.8504
0.0565 0.5542 0.8504
0.0575 0.5496 0.8483
0.0780 0.5362 0.8453
0.6117 0.5164 0.8751
0.8122 0.4406 0.8722
0.8560 0.2262 0.8047
0.8455 0.0788 0.7478
0.0022 0.7793 0.8913
0.0022 0.7793 0.8913
0.0022 0.7759 0.8913
0.0022 0.7725 0.8899
0.2271 0.7670 0.8913
0.7811 0.7537 0.8912
0.9240 0.7220 0.8897
0.9786 0.6226 0.8876
0.0000 0.9044 0.8842
0.0000 0.9030 0.8842
0.0000 0.9029 0.8842
0.0000 0.9029 0.8842
0.0000 0.9011 0.8842
0.5257 0.8977 0.8842
0.8947 0.8880 0.8826
0.9739 0.8689 0.8806
0.0000 0.9675 0.8685
0.0000 0.9675 0.8685
0.0000 0.9657 0.8685
0.0000 0.9657 0.8669
0.0000 0.9657 0.8669
0.0000 0.9657 0.8654
0.6956 0.9638 0.8649
0.9586 0.9592 0.8598
0.0268 0.0236 0.7061
0.0268 0.0236 0.7061
0.0268 0.0236 0.7061
0.2346 0.0375 0.7223
0.5692 0.0688 0.7465
0.7149 0.0800 0.7727
0.8072 0.0800 0.8026
0.8512 0.0753 0.8139
0.0268 0.0236 0.7061
0.0268 0.0236 0.7061
0.0268 0.0236 0.7061
0.2217 0.0375 0.7215
0.5684 0.0688 0.7465
0.7137 0.0800 0.7727
0.8072 0.0800 0.8026
0.8512 0.0753 0.8139
0.0268 0.0236 0.7054
0.0268 0.0236 0.7054
0.0268 0.0236 0.7054
0.1540 0.0328 0.7140
0.5556 0.0688 0.7465
0.7089 0.0800 0.7721
0.8072 0.0800 0.8009
0.8512 0.0753 0.8139
0.0268 0.0236 0.7054
0.0268 0.0236 0.7054
0.0268 0.0236 0.7054
0.0533 0.0246 0.7070
0.5255 0.0641 0.7440
0.7003 0.0800 0.7681
0.8040 0.0800 0.8009
0.8512 0.0753 0.8139
0.0530 0.1976 0.7685
0.0530 0.1957 0.7685
0.0530 0.1799 0.7621
0.0522 0.1627 0.7538
0.4549 0.1548 0.7838
0.6926 0.1115 0.7830
0.7995 0.0808 0.7994
0.8481 0.0753 0.8139
0.0147 0.7191 0.9510
0.0147 0.7191 0.9508
0.0147 0.7184 0.9508
0.0147 0.7119 0.9508
0.0976 0.7027 0.9501
0.7562 0.6839 0.9604
0.9180 0.6262 0.9604
0.9397 0.3943 0.9175
0.0000 0.8886 0.9583
0.0000 0.8886 0.9583
0.0000 0.8886 0.9583
0.0000 0.8872 0.9583
0.0000 0.8847 0.9583
0.3935 0.8800 0.9583
0.8860 0.8689 0.9569
0.9725 0.8422 0.9569
0.0000 0.9625 0.9564
0.0000 0.9625 0.9564
0.0000 0.9625 0.9564
0.0000 0.9625 0.9564
0.0000 0.9625 0.9535
0.0000 0.9625 0.9535
0.6653 0.9592 0.9535
0.9582 0.9555 0.9535
