cave_demo/assets/luts/slog2sg_to_rec709_v01.cube
TITLE "Generate by Resolve"
LUT_3D_SIZE 5
0.000000 0.000000 0.000000
0.290196 0.023529 0.023529
0.603922 0.050980 0.050980
0.749020 0.062745 0.062745
0.776471 0.062745 0.062745
0.066667 0.294118 0.066667
0.278431 0.290196 0.062745
0.623529 0.125490 0.062745
0.749020 0.062745 0.062745
0.776471 0.062745 0.062745
0.015686 0.733333 0.015686
0.015686 0.729412 0.015686
0.701961 0.717647 0.000000
0.972549 0.568627 0.000000
0.776471 0.062745 0.062745
0.000000 0.964706 0.000000
0.000000 0.964706 0.000000
0.000000 0.964706 0.000000
0.952941 0.956863 0.000000
1.000000 0.913726 0.000000
0.000000 1.000000 0.000000
0.000000 1.000000 0.000000
0.000000 1.000000 0.000000
0.000000 1.000000 0.000000
1.000000 1.000000 0.000000
0.003922 0.003922 0.215686
0.290196 0.027451 0.235294
0.607843 0.054902 0.243137
0.749020 0.062745 0.141176
0.776471 0.062745 0.062745
0.066667 0.278431 0.262745
0.270588 0.270588 0.270588
0.619608 0.098039 0.235294
0.749020 0.062745 0.113725
0.776471 0.062745 0.062745
0.015686 0.729412 0.105882
0.015686 0.725490 0.101961
0.701961 0.713726 0.050980
0.972549 0.560784 0.003922
0.776471 0.062745 0.062745
0.000000 0.964706 0.000000
0.000000 0.964706 0.000000
0.000000 0.964706 0.000000
0.952941 0.956863 0.000000
1.000000 0.913726 0.000000
0.000000 1.000000 0.000000
0.000000 1.000000 0.000000
0.000000 1.000000 0.000000
0.000000 1.000000 0.000000
1.000000 1.000000 0.000000
0.015686 0.015686 0.517647
0.250980 0.035294 0.537255
0.615686 0.062745 0.564706
0.792157 0.066667 0.584314
0.819608 0.066667 0.529412
0.035294 0.098039 0.537255
0.160784 0.074510 0.537255
0.607843 0.062745 0.564706
0.792157 0.066667 0.580392
0.819608 0.066667 0.521569
0.007843 0.713726 0.694118
0.007843 0.713726 0.694118
0.690196 0.694118 0.694118
0.972549 0.505882 0.674510
0.819608 0.066667 0.498039
0.000000 0.964706 0.564706
0.000000 0.964706 0.560784
0.000000 0.964706 0.552941
0.952941 0.956863 0.513726
1.000000 0.909804 0.192157
0.000000 1.000000 0.000000
0.000000 1.000000 0.000000
0.000000 1.000000 0.000000
0.000000 1.000000 0.000000
1.000000 1.000000 0.000000
0.019608 0.019608 0.690196
0.019608 0.019608 0.690196
0.596078 0.066667 0.741176
0.811765 0.062745 0.796079
0.847059 0.062745 0.800000
0.019608 0.019608 0.690196
0.019608 0.019608 0.690196
0.584314 0.066667 0.741176
0.811765 0.062745 0.796079
0.847059 0.062745 0.800000
0.027451 0.568627 0.925490
0.031373 0.560784 0.921569
0.623529 0.509804 0.949020
0.831373 0.098039 0.815686
0.847059 0.062745 0.800000
0.000000 0.956863 0.952941
0.000000 0.956863 0.952941
0.000000 0.956863 0.949020
0.949020 0.949020 0.949020
1.000000 0.890196 0.945098
0.000000 1.000000 0.909804
0.000000 1.000000 0.909804
0.000000 1.000000 0.905882
0.000000 1.000000 0.905882
1.000000 1.000000 0.890196
0.019608 0.019608 0.725490
0.019608 0.019608 0.725490
0.305882 0.043137 0.749020
0.807843 0.062745 0.835294
0.850980 0.062745 0.847059
0.019608 0.019608 0.725490
0.019608 0.019608 0.725490
0.219608 0.035294 0.741176
0.807843 0.062745 0.835294
0.850980 0.062745 0.847059
0.019608 0.019608 0.725490
0.019608 0.019608 0.725490
0.023529 0.019608 0.725490
0.803922 0.062745 0.835294
0.850980 0.062745 0.847059
0.000000 0.917647 1.000000
0.000000 0.917647 1.000000
0.000000 0.913726 1.000000
0.925490 0.890196 1.000000
0.956863 0.533333 0.952941
0.000000 1.000000 1.000000
0.000000 1.000000 1.000000
0.000000 1.000000 1.000000
0.000000 1.000000 1.000000
1.000000 1.000000 1.000000
