cave_demo/assets/luts/slog2sg_to_rec709_STARCentral.001.cube
TITLE "slog2sg_to_rec709_STARCentral.001"
LUT_3D_SIZE 5
DOMAIN_MIN 0.000000 0.000000 0.000000
DOMAIN_MAX 0.903226 0.903226 0.903226
0.0196 0.0196 0.0196
0.3059 0.0431 0.0431
0.5922 0.0667 0.0667
0.7529 0.0784 0.0784
0.7882 0.0824 0.0824
0.0863 0.3098 0.0863
0.2941 0.3020 0.0824
0.6275 0.1804 0.0824
0.7529 0.0784 0.0784
0.7882 0.0824 0.0824
0.0431 0.7098 0.0431
0.0431 0.7059 0.0431
0.6824 0.6980 0.0196
0.9725 0.5843 0.0196
0.7882 0.0824 0.0824
0.0196 0.9569 0.0196
0.0196 0.9569 0.0196
0.0196 0.9569 0.0196
0.9373 0.9490 0.0196
1.0000 0.8941 0.0196
0.0196 1.0000 0.0196
0.0196 1.0000 0.0196
0.0196 1.0000 0.0196
0.0275 1.0000 0.0196
1.0000 1.0000 0.0196
0.0235 0.0235 0.2314
0.3059 0.0471 0.2510
0.5961 0.0706 0.2627
0.7569 0.0824 0.2000
0.7882 0.0824 0.0824
0.0863 0.2941 0.2784
0.2824 0.2863 0.2863
0.6196 0.1529 0.2627
0.7529 0.0824 0.1765
0.7882 0.0824 0.0824
0.0431 0.7059 0.1647
0.0431 0.7020 0.1608
0.6824 0.6941 0.1137
0.9725 0.5765 0.0314
0.7882 0.0824 0.0824
0.0196 0.9569 0.0196
0.0196 0.9569 0.0196
0.0196 0.9569 0.0196
0.9373 0.9451 0.0196
1.0000 0.8941 0.0196
0.0196 1.0000 0.0196
0.0196 1.0000 0.0196
0.0196 1.0000 0.0196
0.0275 1.0000 0.0196
1.0000 1.0000 0.0196
0.0314 0.0314 0.5059
0.2745 0.0549 0.5255
0.6039 0.0784 0.5529
0.7922 0.0863 0.5725
0.8314 0.0863 0.5333
0.0588 0.1569 0.5373
0.2000 0.1333 0.5412
0.5961 0.0824 0.5529
0.7882 0.0863 0.5686
0.8314 0.0863 0.5255
0.0353 0.6941 0.6745
0.0353 0.6902 0.6706
0.6706 0.6745 0.6745
0.9725 0.5294 0.6549
0.8275 0.0863 0.5059
0.0196 0.9569 0.5725
0.0196 0.9569 0.5686
0.0196 0.9529 0.5647
0.9373 0.9451 0.5333
1.0000 0.8863 0.3647
0.0196 1.0000 0.0196
0.0196 1.0000 0.0196
0.0196 1.0000 0.0196
0.0275 1.0000 0.0196
1.0000 1.0000 0.0196
0.0392 0.0392 0.6902
0.0588 0.0392 0.6941
0.5843 0.0824 0.7333
0.8078 0.0863 0.7843
0.8549 0.0824 0.7882
0.0392 0.0392 0.6902
0.0392 0.0392 0.6902
0.5725 0.0824 0.7333
0.8078 0.0863 0.7843
0.8549 0.0824 0.7882
0.0510 0.5804 0.9137
0.0510 0.5725 0.9098
0.6157 0.5333 0.9373
0.8706 0.2118 0.8471
0.8549 0.0824 0.7882
0.0196 0.9490 0.9373
0.0196 0.9451 0.9373
0.0196 0.9451 0.9333
0.9333 0.9333 0.9333
1.0000 0.8588 0.9255
0.0196 1.0000 0.8824
0.0196 1.0000 0.8824
0.0196 1.0000 0.8824
0.0196 1.0000 0.8784
1.0000 1.0000 0.8627
0.0392 0.0392 0.7412
0.0392 0.0392 0.7412
0.4275 0.0706 0.7725
0.8039 0.0824 0.8431
0.8627 0.0824 0.8549
0.0392 0.0392 0.7412
0.0392 0.0392 0.7412
0.3843 0.0667 0.7686
0.8039 0.0824 0.8431
0.8627 0.0824 0.8549
0.0392 0.0392 0.7412
0.0392 0.0392 0.7412
0.1098 0.0431 0.7451
0.7961 0.0824 0.8392
0.8627 0.0824 0.8549
0.0196 0.8941 1.0000
0.0196 0.8941 1.0000
0.0196 0.8902 1.0000
0.9059 0.8588 1.0000
0.9843 0.5686 0.9804
0.0196 1.0000 1.0000
0.0196 1.0000 1.0000
0.0196 1.0000 1.0000
0.0196 1.0000 1.0000
1.0000 1.0000 1.0000
