cave_demo/assets/luts/slog2sg_to_rec709_v01.cube
TITLE "Generate by Resolve"
LUT_3D_SIZE 9
0.000000 0.000000 0.000000
0.047059 0.003922 0.003922
0.290196 0.023529 0.023529
0.470588 0.039216 0.039216
0.603922 0.050980 0.050980
0.701961 0.058824 0.058824
0.749020 0.062745 0.062745
0.764706 0.062745 0.062745
0.776471 0.062745 0.062745
0.007843 0.039216 0.007843
0.035294 0.039216 0.007843
0.282353 0.027451 0.023529
0.466667 0.039216 0.039216
0.603922 0.047059 0.047059
0.701961 0.058824 0.058824
0.749020 0.062745 0.062745
0.764706 0.062745 0.062745
0.776471 0.062745 0.062745
0.066667 0.294118 0.066667
0.066667 0.290196 0.066667
0.278431 0.290196 0.062745
0.525490 0.254902 0.062745
0.623529 0.125490 0.062745
0.701961 0.058824 0.058824
0.749020 0.062745 0.062745
0.764706 0.062745 0.062745
0.776471 0.062745 0.062745
0.047059 0.537255 0.047059
0.047059 0.537255 0.047059
0.062745 0.529412 0.047059
0.517647 0.533333 0.027451
0.749020 0.494118 0.019608
0.866667 0.352941 0.039216
0.745098 0.062745 0.062745
0.764706 0.062745 0.062745
0.776471 0.062745 0.062745
0.015686 0.733333 0.015686
0.015686 0.733333 0.015686
0.015686 0.729412 0.015686
0.176471 0.729412 0.007843
0.701961 0.717647 0.000000
0.901961 0.682353 0.000000
0.972549 0.568627 0.000000
0.772549 0.070588 0.062745
0.776471 0.062745 0.062745
0.000000 0.886275 0.000000
0.000000 0.886275 0.000000
0.000000 0.886275 0.000000
0.000000 0.886275 0.000000
0.325490 0.882353 0.000000
0.858824 0.870588 0.000000
0.972549 0.847059 0.000000
1.000000 0.752941 0.000000
0.898039 0.270588 0.039216
0.000000 0.964706 0.000000
0.000000 0.964706 0.000000
0.000000 0.964706 0.000000
0.000000 0.964706 0.000000
0.000000 0.964706 0.000000
0.545098 0.960784 0.000000
0.952941 0.956863 0.000000
1.000000 0.945098 0.000000
1.000000 0.913726 0.000000
0.000000 0.996078 0.000000
0.000000 0.996078 0.000000
0.000000 0.996078 0.000000
0.000000 0.996078 0.000000
0.000000 0.996078 0.000000
0.000000 0.996078 0.000000
0.733333 0.996078 0.000000
0.992157 0.992157 0.000000
1.000000 0.992157 0.000000
0.000000 1.000000 0.000000
0.000000 1.000000 0.000000
0.000000 1.000000 0.000000
0.000000 1.000000 0.000000
0.000000 1.000000 0.000000
0.000000 1.000000 0.000000
0.000000 1.000000 0.000000
0.960784 1.000000 0.000000
1.000000 1.000000 0.000000
0.000000 0.000000 0.027451
0.047059 0.003922 0.031373
0.290196 0.023529 0.047059
0.470588 0.039216 0.054902
0.603922 0.050980 0.050980
0.701961 0.058824 0.058824
0.749020 0.062745 0.062745
0.764706 0.062745 0.062745
0.776471 0.062745 0.062745
0.007843 0.035294 0.031373
0.031373 0.031373 0.031373
0.282353 0.027451 0.043137
0.466667 0.039216 0.050980
0.603922 0.050980 0.050980
0.701961 0.058824 0.058824
0.749020 0.062745 0.062745
0.764706 0.062745 0.062745
0.776471 0.062745 0.062745
0.066667 0.294118 0.070588
0.062745 0.290196 0.070588
0.278431 0.286275 0.066667
0.521569 0.250980 0.062745
0.619608 0.121569 0.062745
0.701961 0.058824 0.058824
0.749020 0.062745 0.062745
0.764706 0.062745 0.062745
0.776471 0.062745 0.062745
0.047059 0.537255 0.047059
0.047059 0.537255 0.047059
0.062745 0.529412 0.047059
0.517647 0.529412 0.027451
0.749020 0.490196 0.019608
0.866667 0.349020 0.039216
0.745098 0.062745 0.062745
0.764706 0.062745 0.062745
0.776471 0.062745 0.062745
0.015686 0.733333 0.015686
0.015686 0.733333 0.015686
0.015686 0.729412 0.015686
0.176471 0.725490 0.007843
0.701961 0.717647 0.000000
0.901961 0.682353 0.000000
0.972549 0.568627 0.000000
0.772549 0.070588 0.062745
0.776471 0.062745 0.062745
0.000000 0.886275 0.000000
0.000000 0.886275 0.000000
0.000000 0.886275 0.000000
0.000000 0.886275 0.000000
0.325490 0.882353 0.000000
0.858824 0.870588 0.000000
0.972549 0.847059 0.000000
1.000000 0.752941 0.000000
0.898039 0.270588 0.039216
0.000000 0.964706 0.000000
0.000000 0.964706 0.000000
0.000000 0.964706 0.000000
0.000000 0.964706 0.000000
0.000000 0.964706 0.000000
0.545098 0.960784 0.000000
0.952941 0.956863 0.000000
1.000000 0.945098 0.000000
1.000000 0.913726 0.000000
0.000000 0.996078 0.000000
0.000000 0.996078 0.000000
0.000000 0.996078 0.000000
0.000000 0.996078 0.000000
0.000000 0.996078 0.000000
0.000000 0.996078 0.000000
0.733333 0.996078 0.000000
0.992157 0.992157 0.000000
1.000000 0.992157 0.000000
0.000000 1.000000 0.000000
0.000000 1.000000 0.000000
0.000000 1.000000 0.000000
0.000000 1.000000 0.000000
0.000000 1.000000 0.000000
0.000000 1.000000 0.000000
0.000000 1.000000 0.000000
0.960784 1.000000 0.000000
1.000000 1.000000 0.000000
0.003922 0.003922 0.215686
0.039216 0.007843 0.215686
0.290196 0.027451 0.235294
0.474510 0.043137 0.243137
0.607843 0.054902 0.243137
0.705882 0.062745 0.219608
0.749020 0.062745 0.141176
0.764706 0.062745 0.062745
0.776471 0.062745 0.062745
0.007843 0.011765 0.215686
0.019608 0.011765 0.215686
0.282353 0.027451 0.231373
0.470588 0.043137 0.243137
0.607843 0.054902 0.243137
0.705882 0.062745 0.219608
0.749020 0.062745 0.137255
0.764706 0.062745 0.062745
0.776471 0.062745 0.062745
0.066667 0.278431 0.262745
0.066667 0.274510 0.262745
0.270588 0.270588 0.270588
0.521569 0.231373 0.270588
0.619608 0.098039 0.235294
0.705882 0.062745 0.200000
0.749020 0.062745 0.113725
0.764706 0.062745 0.062745
0.776471 0.062745 0.062745
0.047059 0.533333 0.247059
0.047059 0.533333 0.247059
0.058824 0.525490 0.243137
0.513726 0.525490 0.227451
0.749020 0.482353 0.203922
0.862745 0.333333 0.164706
0.749020 0.062745 0.078431
0.764706 0.062745 0.062745
0.776471 0.062745 0.062745
0.015686 0.729412 0.105882
0.015686 0.729412 0.105882
0.015686 0.725490 0.101961
0.164706 0.725490 0.082353
0.701961 0.713726 0.050980
0.901961 0.678431 0.015686
0.972549 0.560784 0.003922
0.772549 0.070588 0.062745
0.776471 0.062745 0.062745
0.000000 0.886275 0.000000
0.000000 0.886275 0.000000
0.000000 0.886275 0.000000
0.000000 0.882353 0.000000
0.321569 0.878431 0.000000
0.858824 0.870588 0.000000
0.972549 0.843137 0.000000
1.000000 0.749020 0.000000
0.898039 0.262745 0.039216
0.000000 0.964706 0.000000
0.000000 0.964706 0.000000
0.000000 0.964706 0.000000
0.000000 0.964706 0.000000
0.000000 0.964706 0.000000
0.537255 0.960784 0.000000
0.952941 0.956863 0.000000
1.000000 0.945098 0.000000
1.000000 0.913726 0.000000
0.000000 0.996078 0.000000
0.000000 0.996078 0.000000
0.000000 0.996078 0.000000
0.000000 0.996078 0.000000
0.000000 0.996078 0.000000
0.000000 0.996078 0.000000
0.733333 0.996078 0.000000
0.992157 0.992157 0.000000
1.000000 0.992157 0.000000
0.000000 1.000000 0.000000
0.000000 1.000000 0.000000
0.000000 1.000000 0.000000
0.000000 1.000000 0.000000
0.000000 1.000000 0.000000
0.000000 1.000000 0.000000
0.000000 1.000000 0.000000
0.960784 1.000000 0.000000
1.000000 1.000000 0.000000
0.011765 0.011765 0.384314
0.015686 0.011765 0.384314
0.282353 0.031373 0.407843
0.474510 0.047059 0.419608
0.615686 0.058824 0.427451
0.717647 0.066667 0.431373
0.772549 0.066667 0.411765
0.788235 0.066667 0.333333
0.776471 0.062745 0.105882
0.011765 0.011765 0.384314
0.011765 0.011765 0.384314
0.270588 0.031373 0.403922
0.470588 0.047059 0.419608
0.611765 0.058824 0.427451
0.717647 0.066667 0.427451
0.772549 0.066667 0.411765
0.788235 0.066667 0.333333
0.776471 0.062745 0.105882
0.062745 0.235294 0.435294
0.058824 0.231373 0.435294
0.243137 0.219608 0.447059
0.498039 0.172549 0.454902
0.611765 0.070588 0.427451
0.717647 0.066667 0.423529
0.772549 0.066667 0.403922
0.784314 0.066667 0.321569
0.776471 0.062745 0.101961
0.043137 0.521569 0.501961
0.043137 0.521569 0.501961
0.054902 0.513726 0.498039
0.505882 0.505882 0.505882
0.749020 0.458824 0.501961
0.858824 0.290196 0.474510
0.768628 0.066667 0.388235
0.780392 0.066667 0.294118
0.776471 0.062745 0.090196
0.007843 0.729412 0.474510
0.007843 0.729412 0.474510
0.007843 0.725490 0.470588
0.141176 0.721569 0.466667
0.698039 0.709804 0.458824
0.901961 0.670588 0.439216
0.976471 0.545098 0.392157
0.776471 0.070588 0.223529
0.776471 0.062745 0.062745
0.000000 0.886275 0.341176
0.000000 0.886275 0.341176
0.000000 0.882353 0.337255
0.000000 0.882353 0.333333
0.313726 0.878431 0.317647
0.858824 0.870588 0.278431
0.972549 0.843137 0.184314
1.000000 0.745098 0.023529
0.890196 0.247059 0.043137
0.000000 0.964706 0.003922
0.000000 0.964706 0.003922
0.000000 0.964706 0.003922
0.000000 0.964706 0.000000
0.000000 0.964706 0.000000
0.525490 0.960784 0.000000
0.952941 0.956863 0.000000
1.000000 0.945098 0.000000
1.000000 0.913726 0.000000
0.000000 0.996078 0.000000
0.000000 0.996078 0.000000
0.000000 0.996078 0.000000
0.000000 0.996078 0.000000
0.000000 0.996078 0.000000
0.000000 0.996078 0.000000
0.729412 0.996078 0.000000
0.992157 0.992157 0.000000
1.000000 0.992157 0.000000
0.000000 1.000000 0.000000
0.000000 1.000000 0.000000
0.000000 1.000000 0.000000
0.000000 1.000000 0.000000
0.000000 1.000000 0.000000
0.000000 1.000000 0.000000
0.000000 1.000000 0.000000
0.960784 1.000000 0.000000
1.000000 1.000000 0.000000
0.015686 0.015686 0.517647
0.015686 0.015686 0.517647
0.250980 0.035294 0.537255
0.470588 0.050980 0.552941
0.615686 0.062745 0.564706
0.733333 0.066667 0.584314
0.792157 0.066667 0.584314
0.811765 0.066667 0.568627
0.819608 0.066667 0.529412
0.015686 0.015686 0.517647
0.015686 0.015686 0.517647
0.239216 0.031373 0.537255
0.466667 0.050980 0.552941
0.611765 0.062745 0.564706
0.733333 0.066667 0.584314
0.792157 0.066667 0.584314
0.811765 0.066667 0.564706
0.819608 0.066667 0.525490
0.035294 0.098039 0.537255
0.031373 0.094118 0.533333
0.160784 0.074510 0.537255
0.447059 0.062745 0.552941
0.607843 0.062745 0.564706
0.733333 0.066667 0.580392
0.792157 0.066667 0.580392
0.811765 0.066667 0.564706
0.819608 0.066667 0.521569
0.047059 0.482353 0.674510
0.047059 0.482353 0.670588
0.047059 0.470588 0.670588
0.482353 0.458824 0.694118
0.737255 0.400000 0.694118
0.803922 0.180392 0.631373
0.792157 0.066667 0.576471
0.811765 0.066667 0.556863
0.819608 0.066667 0.517647
0.007843 0.713726 0.694118
0.007843 0.713726 0.694118
0.007843 0.713726 0.694118
0.090196 0.705882 0.694118
0.690196 0.694118 0.694118
0.898039 0.654902 0.690196
0.972549 0.505882 0.674510
0.811765 0.066667 0.545098
0.819608 0.066667 0.498039
0.000000 0.882353 0.666667
0.000000 0.882353 0.666667
0.000000 0.878431 0.666667
0.000000 0.878431 0.662745
0.294118 0.874510 0.662745
0.854902 0.862745 0.654902
0.972549 0.835294 0.639216
1.000000 0.729412 0.600000
0.901961 0.200000 0.478431
0.000000 0.964706 0.564706
0.000000 0.964706 0.564706
0.000000 0.964706 0.560784
0.000000 0.964706 0.560784
0.000000 0.964706 0.552941
0.494118 0.960784 0.541176
0.952941 0.956863 0.513726
1.000000 0.945098 0.423529
1.000000 0.909804 0.192157
0.000000 0.996078 0.019608
0.000000 0.996078 0.019608
0.000000 0.996078 0.019608
0.000000 0.996078 0.019608
0.000000 0.996078 0.015686
0.000000 0.996078 0.015686
0.717647 0.996078 0.003922
0.992157 0.992157 0.000000
1.000000 0.992157 0.000000
0.000000 1.000000 0.000000
0.000000 1.000000 0.000000
0.000000 1.000000 0.000000
0.000000 1.000000 0.000000
0.000000 1.000000 0.000000
0.000000 1.000000 0.000000
0.000000 1.000000 0.000000
0.960784 1.000000 0.000000
1.000000 1.000000 0.000000
0.019608 0.019608 0.627451
0.019608 0.019608 0.627451
0.149020 0.027451 0.639216
0.447059 0.054902 0.666667
0.611765 0.066667 0.678431
0.745098 0.066667 0.709804
0.803922 0.066667 0.721569
0.827451 0.062745 0.717647
0.839216 0.062745 0.709804
0.019608 0.019608 0.627451
0.019608 0.019608 0.627451
0.133333 0.027451 0.639216
0.443137 0.054902 0.662745
0.611765 0.066667 0.678431
0.745098 0.066667 0.709804
0.803922 0.066667 0.721569
0.827451 0.062745 0.717647
0.839216 0.062745 0.709804
0.019608 0.019608 0.627451
0.019608 0.019608 0.627451
0.035294 0.019608 0.631373
0.419608 0.050980 0.662745
0.603922 0.066667 0.678431
0.741176 0.066667 0.709804
0.803922 0.066667 0.717647
0.827451 0.062745 0.717647
0.839216 0.062745 0.709804
0.058824 0.341176 0.752941
0.058824 0.341176 0.752941
0.062745 0.321569 0.741176
0.407843 0.290196 0.780392
0.650980 0.180392 0.752941
0.741176 0.070588 0.709804
0.803922 0.066667 0.717647
0.827451 0.062745 0.713726
0.839216 0.062745 0.705882
0.011765 0.682353 0.858824
0.011765 0.682353 0.858824
0.011765 0.678431 0.858824
0.043137 0.670588 0.858824
0.674510 0.654902 0.862745
0.894118 0.600000 0.862745
0.949020 0.372549 0.835294
0.827451 0.062745 0.713726
0.839216 0.062745 0.701961
0.000000 0.870588 0.854902
0.000000 0.870588 0.854902
0.000000 0.870588 0.854902
0.000000 0.870588 0.854902
0.243137 0.862745 0.854902
0.850980 0.850980 0.854902
0.968628 0.819608 0.850980
1.000000 0.698039 0.839216
0.839216 0.070588 0.694118
0.000000 0.964706 0.831373
0.000000 0.964706 0.831373
0.000000 0.960784 0.831373
0.000000 0.960784 0.831373
0.000000 0.960784 0.831373
0.454902 0.960784 0.827451
0.949020 0.952941 0.819608
1.000000 0.941177 0.807843
1.000000 0.905882 0.788235
0.000000 0.996078 0.745098
0.000000 0.996078 0.745098
0.000000 0.996078 0.745098
0.000000 0.996078 0.745098
0.000000 0.996078 0.741176
0.000000 0.996078 0.737255
0.690196 0.996078 0.729412
0.992157 0.992157 0.701961
1.000000 0.992157 0.658824
0.000000 1.000000 0.290196
0.000000 1.000000 0.290196
0.000000 1.000000 0.286275
0.000000 1.000000 0.286275
0.000000 1.000000 0.282353
0.000000 1.000000 0.274510
0.000000 1.000000 0.250980
0.960784 1.000000 0.184314
1.000000 1.000000 0.003922
0.019608 0.019608 0.690196
0.019608 0.019608 0.690196
0.019608 0.019608 0.690196
0.372549 0.050980 0.721569
0.596078 0.066667 0.741176
0.745098 0.066667 0.780392
0.811765 0.062745 0.796079
0.835294 0.062745 0.800000
0.847059 0.062745 0.800000
0.019608 0.019608 0.690196
0.019608 0.019608 0.690196
0.019608 0.019608 0.690196
0.368627 0.047059 0.721569
0.592157 0.066667 0.741176
0.745098 0.066667 0.780392
0.811765 0.062745 0.796079
0.835294 0.062745 0.800000
0.847059 0.062745 0.800000
0.019608 0.019608 0.690196
0.019608 0.019608 0.690196
0.019608 0.019608 0.690196
0.325490 0.043137 0.717647
0.584314 0.066667 0.741176
0.745098 0.066667 0.780392
0.811765 0.062745 0.796079
0.835294 0.062745 0.800000
0.847059 0.062745 0.800000
0.019608 0.019608 0.690196
0.019608 0.019608 0.690196
0.019608 0.019608 0.690196
0.160784 0.031373 0.701961
0.560784 0.062745 0.737255
0.737255 0.066667 0.780392
0.807843 0.062745 0.796079
0.835294 0.062745 0.800000
0.847059 0.062745 0.800000
0.027451 0.568627 0.925490
0.031373 0.564706 0.925490
0.031373 0.560784 0.921569
0.031373 0.545098 0.917647
0.623529 0.509804 0.949020
0.862745 0.380392 0.929412
0.831373 0.098039 0.815686
0.835294 0.062745 0.800000
0.847059 0.062745 0.800000
0.000000 0.847059 0.956863
0.000000 0.847059 0.956863
0.000000 0.847059 0.956863
0.000000 0.843137 0.956863
0.086275 0.835294 0.956863
0.835294 0.819608 0.952941
0.968628 0.776471 0.952941
1.000000 0.584314 0.952941
0.847059 0.066667 0.796079
0.000000 0.956863 0.952941
0.000000 0.956863 0.952941
0.000000 0.956863 0.952941
0.000000 0.956863 0.949020
0.000000 0.956863 0.949020
0.411765 0.952941 0.949020
0.949020 0.949020 0.949020
1.000000 0.933333 0.949020
1.000000 0.890196 0.945098
0.000000 0.996078 0.937255
0.000000 0.996078 0.937255
0.000000 0.996078 0.937255
0.000000 0.996078 0.937255
0.000000 0.996078 0.937255
0.000000 0.996078 0.937255
0.596078 0.996078 0.937255
0.992157 0.992157 0.933333
1.000000 0.988235 0.929412
0.000000 1.000000 0.909804
0.000000 1.000000 0.909804
0.000000 1.000000 0.909804
0.000000 1.000000 0.909804
0.000000 1.000000 0.905882
0.000000 1.000000 0.905882
0.000000 1.000000 0.905882
0.956863 1.000000 0.898039
1.000000 1.000000 0.890196
0.019608 0.019608 0.717647
0.019608 0.019608 0.717647
0.019608 0.019608 0.717647
0.035294 0.019608 0.717647
0.533333 0.062745 0.760784
0.733333 0.066667 0.807843
0.811765 0.062745 0.827451
0.835294 0.062745 0.831373
0.850980 0.062745 0.835294
0.019608 0.019608 0.717647
0.019608 0.019608 0.717647
0.019608 0.019608 0.717647
0.031373 0.019608 0.717647
0.533333 0.062745 0.760784
0.733333 0.066667 0.807843
0.811765 0.062745 0.827451
0.835294 0.062745 0.831373
0.850980 0.062745 0.835294
0.019608 0.019608 0.717647
0.019608 0.019608 0.717647
0.019608 0.019608 0.717647
0.023529 0.019608 0.717647
0.517647 0.062745 0.756863
0.729412 0.066667 0.807843
0.811765 0.062745 0.823529
0.835294 0.062745 0.831373
0.850980 0.062745 0.835294
0.019608 0.019608 0.717647
0.019608 0.019608 0.717647
0.019608 0.019608 0.717647
0.019608 0.019608 0.717647
0.482353 0.058824 0.756863
0.721569 0.066667 0.803922
0.811765 0.062745 0.823529
0.835294 0.062745 0.831373
0.850980 0.062745 0.831373
0.023529 0.035294 0.721569
0.023529 0.035294 0.721569
0.023529 0.031373 0.717647
0.023529 0.027451 0.717647
0.325490 0.047059 0.741176
0.705882 0.066667 0.800000
0.807843 0.062745 0.823529
0.835294 0.062745 0.831373
0.850980 0.062745 0.831373
0.000000 0.752941 0.992157
0.000000 0.752941 0.992157
0.000000 0.752941 0.992157
0.000000 0.745098 0.992157
0.003922 0.733333 0.988235
0.796079 0.701961 0.992157
0.964706 0.592157 0.992157
0.862745 0.125490 0.858824
0.850980 0.062745 0.831373
0.000000 0.945098 0.992157
0.000000 0.945098 0.992157
0.000000 0.945098 0.992157
0.000000 0.945098 0.992157
0.000000 0.945098 0.992157
0.203922 0.941177 0.992157
0.941177 0.933333 0.992157
0.996078 0.909804 0.992157
1.000000 0.831373 0.992157
0.000000 0.992157 0.992157
0.000000 0.992157 0.992157
0.000000 0.992157 0.992157
0.000000 0.992157 0.992157
0.000000 0.992157 0.992157
0.000000 0.992157 0.992157
0.552941 0.992157 0.992157
0.992157 0.992157 0.992157
1.000000 0.984314 0.988235
0.000000 1.000000 0.988235
0.000000 1.000000 0.988235
0.000000 1.000000 0.988235
0.000000 1.000000 0.988235
0.000000 1.000000 0.988235
0.000000 1.000000 0.988235
0.000000 1.000000 0.988235
0.952941 1.000000 0.988235
1.000000 1.000000 0.988235
0.019608 0.019608 0.725490
0.019608 0.019608 0.725490
0.019608 0.019608 0.725490
0.019608 0.019608 0.725490
0.305882 0.043137 0.749020
0.701961 0.066667 0.811765
0.807843 0.062745 0.835294
0.839216 0.062745 0.843137
0.850980 0.062745 0.847059
0.019608 0.019608 0.725490
0.019608 0.019608 0.725490
0.019608 0.019608 0.725490
0.019608 0.019608 0.725490
0.294118 0.043137 0.749020
0.701961 0.066667 0.807843
0.807843 0.062745 0.835294
0.839216 0.062745 0.843137
0.850980 0.062745 0.847059
0.019608 0.019608 0.725490
0.019608 0.019608 0.725490
0.019608 0.019608 0.725490
0.019608 0.019608 0.725490
0.219608 0.035294 0.741176
0.698039 0.066667 0.807843
0.807843 0.062745 0.835294
0.839216 0.062745 0.843137
0.850980 0.062745 0.847059
0.019608 0.019608 0.725490
0.019608 0.019608 0.725490
0.019608 0.019608 0.725490
0.019608 0.019608 0.725490
0.141176 0.031373 0.737255
0.686275 0.066667 0.803922
0.807843 0.062745 0.835294
0.835294 0.062745 0.843137
0.850980 0.062745 0.847059
0.019608 0.019608 0.725490
0.019608 0.019608 0.725490
0.019608 0.019608 0.725490
0.019608 0.019608 0.725490
0.023529 0.019608 0.725490
0.658824 0.066667 0.796079
0.803922 0.062745 0.835294
0.835294 0.062745 0.843137
0.850980 0.062745 0.847059
0.035294 0.262745 0.843137
0.035294 0.262745 0.843137
0.035294 0.254902 0.839216
0.039216 0.243137 0.831373
0.043137 0.200000 0.807843
0.568627 0.086275 0.792157
0.796079 0.066667 0.835294
0.835294 0.062745 0.843137
0.850980 0.062745 0.843137
0.000000 0.917647 1.000000
0.000000 0.917647 1.000000
0.000000 0.917647 1.000000
0.000000 0.913726 1.000000
0.000000 0.913726 1.000000
0.031373 0.905882 1.000000
0.925490 0.890196 1.000000
0.996078 0.835294 1.000000
0.956863 0.533333 0.952941
0.000000 0.992157 1.000000
0.000000 0.992157 1.000000
0.000000 0.992157 1.000000
0.000000 0.992157 1.000000
0.000000 0.992157 1.000000
0.000000 0.992157 1.000000
0.450980 0.988235 1.000000
0.988235 0.988235 1.000000
1.000000 0.980392 1.000000
0.000000 1.000000 1.000000
0.000000 1.000000 1.000000
0.000000 1.000000 1.000000
0.000000 1.000000 1.000000
0.000000 1.000000 1.000000
0.000000 1.000000 1.000000
0.000000 1.000000 1.000000
0.941177 1.000000 1.000000
1.000000 1.000000 1.000000
