cave_demo/assets/luts/slog2sg_to_rec709_STARCentral.002.cube
TITLE "yummySLOG_lut"
LUT_3D_SIZE 32
0.0000 0.0000 0.0000
0.0000 0.0000 0.0000
0.0000 0.0000 0.0000
0.0089 0.0000 0.0000
0.0357 0.0019 0.0013
0.0849 0.0060 0.0041
0.1530 0.0099 0.0068
0.2260 0.0139 0.0096
0.2916 0.0218 0.0150
0.3479 0.0267 0.0184
0.3980 0.0307 0.0212
0.4432 0.0347 0.0240
0.4840 0.0387 0.0267
0.5207 0.0427 0.0295
0.5535 0.0467 0.0322
0.5825 0.0471 0.0325
0.6107 0.0500 0.0345
0.6365 0.0540 0.0373
0.6605 0.0581 0.0401
0.6842 0.0612 0.0423
0.7073 0.0613 0.0424
0.7274 0.0654 0.0452
0.7447 0.0659 0.0456
0.7577 0.0686 0.0475
0.7688 0.0706 0.0488
0.7790 0.0706 0.0488
0.7872 0.0706 0.0488
0.7955 0.0706 0.0488
0.8009 0.0746 0.0516
0.8042 0.0753 0.0521
0.8069 0.0753 0.0521
0.8096 0.0753 0.0521
0.0000 0.0000 0.0000
0.0000 0.0000 0.0000
0.0000 0.0000 0.0000
0.0089 0.0000 0.0000
0.0357 0.0019 0.0013
0.0849 0.0060 0.0041
0.1530 0.0099 0.0068
0.2260 0.0139 0.0096
0.2916 0.0218 0.0150
0.3479 0.0267 0.0184
0.3980 0.0307 0.0212
0.4432 0.0347 0.0240
0.4840 0.0387 0.0267
0.5207 0.0427 0.0295
0.5535 0.0467 0.0322
0.5825 0.0471 0.0325
0.6107 0.0500 0.0345
0.6365 0.0540 0.0373
0.6605 0.0581 0.0401
0.6842 0.0612 0.0423
0.7073 0.0613 0.0424
0.7274 0.0654 0.0452
0.7447 0.0659 0.0456
0.7577 0.0686 0.0475
0.7688 0.0706 0.0488
0.7790 0.0706 0.0488
0.7872 0.0706 0.0488
0.7955 0.0706 0.0488
0.8009 0.0746 0.0516
0.8042 0.0753 0.0521
0.8069 0.0753 0.0521
0.8096 0.0753 0.0521
0.0000 0.0000 0.0000
0.0000 0.0000 0.0000
0.0000 0.0000 0.0000
0.0060 0.0000 0.0000
0.0320 0.0019 0.0013
0.0825 0.0060 0.0041
0.1530 0.0099 0.0068
0.2260 0.0139 0.0096
0.2916 0.0218 0.0150
0.3479 0.0267 0.0184
0.3980 0.0307 0.0212
0.4432 0.0347 0.0240
0.4840 0.0387 0.0267
0.5207 0.0427 0.0295
0.5535 0.0467 0.0322
0.5825 0.0471 0.0325
0.6107 0.0500 0.0345
0.6365 0.0540 0.0373
0.6605 0.0581 0.0401
0.6842 0.0612 0.0423
0.7073 0.0613 0.0424
0.7274 0.0654 0.0452
0.7424 0.0659 0.0456
0.7573 0.0686 0.0475
0.7688 0.0706 0.0488
0.7790 0.0706 0.0488
0.7872 0.0706 0.0488
0.7955 0.0706 0.0488
0.8009 0.0746 0.0516
0.8042 0.0753 0.0521
0.8069 0.0753 0.0521
0.8096 0.0753 0.0521
0.0000 0.0052 0.0000
0.0000 0.0052 0.0000
0.0000 0.0052 0.0000
0.0060 0.0052 0.0000
0.0303 0.0052 0.0013
0.0796 0.0085 0.0041
0.1501 0.0120 0.0068
0.2233 0.0139 0.0096
0.2889 0.0218 0.0150
0.3479 0.0267 0.0184
0.3980 0.0307 0.0212
0.4432 0.0347 0.0240
0.4831 0.0387 0.0267
0.5188 0.0427 0.0295
0.5535 0.0467 0.0322
0.5825 0.0471 0.0325
0.6087 0.0500 0.0345
0.6363 0.0540 0.0373
0.6605 0.0581 0.0401
0.6842 0.0612 0.0423
0.7073 0.0613 0.0424
0.7274 0.0654 0.0452
0.7423 0.0659 0.0456
0.7563 0.0686 0.0475
0.7688 0.0706 0.0488
0.7790 0.0706 0.0488
0.7872 0.0706 0.0488
0.7955 0.0706 0.0488
0.8009 0.0746 0.0516
0.8042 0.0753 0.0521
0.8069 0.0753 0.0521
0.8096 0.0753 0.0521
0.0044 0.0248 0.0027
0.0044 0.0248 0.0027
0.0044 0.0248 0.0027
0.0060 0.0248 0.0027
0.0260 0.0248 0.0027
0.0752 0.0235 0.0054
0.1442 0.0256 0.0082
0.2191 0.0256 0.0110
0.2850 0.0276 0.0150
0.3428 0.0286 0.0184
0.3944 0.0307 0.0212
0.4414 0.0347 0.0240
0.4823 0.0387 0.0267
0.5168 0.0427 0.0295
0.5516 0.0467 0.0322
0.5810 0.0471 0.0325
0.6084 0.0500 0.0345
0.6346 0.0540 0.0373
0.6605 0.0565 0.0390
0.6842 0.0602 0.0416
0.7073 0.0613 0.0424
0.7274 0.0654 0.0452
0.7423 0.0659 0.0456
0.7563 0.0686 0.0475
0.7688 0.0706 0.0488
0.7790 0.0706 0.0488
0.7872 0.0706 0.0488
0.7955 0.0706 0.0488
0.8009 0.0746 0.0516
0.8042 0.0753 0.0521
0.8069 0.0753 0.0521
0.8096 0.0753 0.0521
0.0149 0.0653 0.0090
0.0149 0.0653 0.0090
0.0149 0.0653 0.0090
0.0149 0.0641 0.0090
0.0232 0.0629 0.0090
0.0662 0.0629 0.0099
0.1353 0.0594 0.0126
0.2134 0.0594 0.0154
0.2822 0.0556 0.0181
0.3401 0.0504 0.0210
0.3904 0.0464 0.0228
0.4364 0.0432 0.0248
0.4799 0.0431 0.0268
0.5165 0.0453 0.0295
0.5487 0.0467 0.0322
0.5788 0.0471 0.0325
0.6070 0.0500 0.0345
0.6337 0.0540 0.0373
0.6605 0.0565 0.0390
0.6842 0.0574 0.0396
0.7073 0.0613 0.0424
0.7274 0.0654 0.0452
0.7423 0.0659 0.0456
0.7563 0.0686 0.0475
0.7688 0.0706 0.0488
0.7790 0.0706 0.0488
0.7872 0.0706 0.0488
0.7955 0.0706 0.0488
0.8009 0.0746 0.0516
0.8042 0.0753 0.0521
0.8069 0.0753 0.0521
0.8096 0.0753 0.0521
0.0292 0.1261 0.0177
0.0292 0.1261 0.0177
0.0292 0.1261 0.0177
0.0292 0.1235 0.0177
0.0324 0.1201 0.0177
0.0565 0.1168 0.0185
0.1264 0.1168 0.0213
0.2049 0.1168 0.0240
0.2799 0.1130 0.0268
0.3424 0.1064 0.0296
0.3946 0.0985 0.0307
0.4404 0.0887 0.0310
0.4808 0.0763 0.0307
0.5177 0.0636 0.0307
0.5474 0.0551 0.0333
0.5784 0.0512 0.0332
0.6070 0.0511 0.0345
0.6330 0.0540 0.0373
0.6578 0.0565 0.0390
0.6842 0.0574 0.0396
0.7072 0.0613 0.0424
0.7270 0.0654 0.0452
0.7423 0.0659 0.0456
0.7563 0.0686 0.0475
0.7688 0.0706 0.0488
0.7790 0.0706 0.0488
0.7872 0.0706 0.0488
0.7955 0.0706 0.0488
0.8009 0.0746 0.0516
0.8042 0.0753 0.0521
0.8069 0.0753 0.0521
0.8096 0.0753 0.0521
0.0474 0.1929 0.0287
0.0474 0.1929 0.0287
0.0474 0.1929 0.0287
0.0474 0.1903 0.0287
0.0474 0.1884 0.0287
0.0616 0.1870 0.0296
0.1130 0.1838 0.0324
0.1964 0.1838 0.0351
0.2752 0.1800 0.0379
0.3436 0.1761 0.0407
0.4000 0.1696 0.0418
0.4485 0.1601 0.0430
0.4906 0.1472 0.0442
0.5243 0.1313 0.0418
0.5570 0.1114 0.0418
0.5829 0.0884 0.0394
0.6082 0.0685 0.0367
0.6330 0.0586 0.0373
0.6570 0.0565 0.0390
0.6815 0.0574 0.0396
0.7072 0.0613 0.0424
0.7244 0.0654 0.0452
0.7415 0.0659 0.0456
0.7563 0.0686 0.0475
0.7688 0.0706 0.0488
0.7790 0.0706 0.0488
0.7872 0.0706 0.0488
0.7955 0.0706 0.0488
0.8009 0.0746 0.0516
0.8042 0.0753 0.0521
0.8069 0.0753 0.0521
0.8096 0.0753 0.0521
0.0699 0.2582 0.0425
0.0699 0.2582 0.0425
0.0699 0.2551 0.0425
0.0670 0.2546 0.0407
0.0656 0.2538 0.0399
0.0697 0.2527 0.0399
0.0989 0.2493 0.0408
0.1794 0.2493 0.0436
0.2671 0.2493 0.0490
0.3391 0.2455 0.0497
0.4034 0.2417 0.0520
0.4570 0.2354 0.0529
0.5025 0.2249 0.0536
0.5400 0.2094 0.0529
0.5695 0.1934 0.0529
0.5953 0.1668 0.0504
0.6201 0.1371 0.0476
0.6411 0.1057 0.0448
0.6604 0.0799 0.0432
0.6808 0.0641 0.0417
0.7045 0.0650 0.0424
0.7244 0.0654 0.0452
0.7414 0.0659 0.0456
0.7563 0.0686 0.0475
0.7688 0.0706 0.0488
0.7790 0.0706 0.0488
0.7872 0.0706 0.0488
0.7955 0.0706 0.0488
0.8009 0.0746 0.0516
0.8042 0.0753 0.0521
0.8069 0.0753 0.0521
0.8096 0.0753 0.0521
0.0855 0.3193 0.0521
0.0855 0.3193 0.0521
0.0855 0.3191 0.0521
0.0855 0.3178 0.0521
0.0837 0.3161 0.0510
0.0837 0.3149 0.0502
0.0948 0.3135 0.0492
0.1518 0.3135 0.0520
0.2443 0.3135 0.0531
0.3314 0.3135 0.0521
0.4035 0.3097 0.0521
0.4658 0.3060 0.0532
0.5169 0.2989 0.0532
0.5596 0.2858 0.0532
0.5948 0.2707 0.0532
0.6247 0.2510 0.0529
0.6467 0.2242 0.0521
0.6654 0.1913 0.0510
0.6791 0.1514 0.0499
0.6919 0.1116 0.0476
0.7082 0.0838 0.0445
0.7240 0.0690 0.0452
0.7414 0.0659 0.0456
0.7563 0.0686 0.0475
0.7688 0.0706 0.0488
0.7790 0.0706 0.0488
0.7872 0.0706 0.0488
0.7955 0.0706 0.0488
0.8009 0.0746 0.0516
0.8042 0.0753 0.0521
0.8069 0.0753 0.0521
0.8096 0.0753 0.0521
0.0880 0.3803 0.0537
0.0880 0.3803 0.0537
0.0880 0.3803 0.0537
0.0880 0.3803 0.0537
0.0880 0.3785 0.0537
0.0880 0.3760 0.0537
0.0898 0.3755 0.0521
0.1197 0.3738 0.0536
0.2055 0.3760 0.0537
0.3056 0.3760 0.0515
0.3940 0.3760 0.0504
0.4638 0.3723 0.0492
0.5227 0.3678 0.0487
0.5716 0.3581 0.0487
0.6125 0.3453 0.0487
0.6472 0.3295 0.0487
0.6776 0.3098 0.0487
0.6997 0.2836 0.0503
0.7156 0.2484 0.0504
0.7249 0.2022 0.0510
0.7323 0.1515 0.0488
0.7369 0.1047 0.0473
0.7432 0.0744 0.0456
0.7563 0.0686 0.0475
0.7688 0.0706 0.0488
0.7790 0.0706 0.0488
0.7872 0.0706 0.0488
0.7955 0.0706 0.0488
0.8009 0.0746 0.0516
0.8042 0.0753 0.0521
0.8069 0.0753 0.0521
0.8096 0.0753 0.0521
0.0835 0.4395 0.0509
0.0835 0.4395 0.0509
0.0835 0.4395 0.0509
0.0835 0.4395 0.0509
0.0835 0.4393 0.0509
0.0835 0.4358 0.0509
0.0841 0.4349 0.0509
0.0949 0.4313 0.0509
0.1551 0.4330 0.0509
0.2608 0.4354 0.0487
0.3663 0.4354 0.0464
0.4519 0.4354 0.0464
0.5176 0.4309 0.0436
0.5743 0.4238 0.0432
0.6203 0.4143 0.0432
0.6597 0.4034 0.0420
0.6942 0.3879 0.0420
0.7248 0.3689 0.0435
0.7485 0.3418 0.0452
0.7662 0.3050 0.0458
0.7728 0.2555 0.0487
0.7733 0.1946 0.0492
0.7657 0.1330 0.0476
0.7625 0.0883 0.0475
0.7700 0.0723 0.0488
0.7792 0.0709 0.0488
0.7872 0.0706 0.0488
0.7955 0.0706 0.0488
0.8009 0.0746 0.0516
0.8042 0.0753 0.0521
0.8069 0.0753 0.0521
0.8096 0.0753 0.0521
0.0790 0.4942 0.0481
0.0790 0.4942 0.0481
0.0790 0.4942 0.0481
0.0790 0.4942 0.0481
0.0790 0.4942 0.0481
0.0790 0.4931 0.0481
0.0790 0.4902 0.0481
0.0829 0.4872 0.0481
0.1105 0.4861 0.0481
0.1995 0.4888 0.0460
0.3189 0.4910 0.0432
0.4235 0.4902 0.0408
0.5034 0.4902 0.0401
0.5687 0.4833 0.0374
0.6204 0.4764 0.0369
0.6648 0.4694 0.0351
0.7023 0.4582 0.0336
0.7357 0.4440 0.0345
0.7666 0.4250 0.0369
0.7921 0.3964 0.0369
0.8114 0.3605 0.0396
0.8192 0.3120 0.0452
0.8122 0.2453 0.0467
0.7970 0.1710 0.0488
0.7840 0.1080 0.0488
0.7827 0.0770 0.0488
0.7872 0.0716 0.0488
0.7948 0.0706 0.0488
0.8009 0.0746 0.0516
0.8042 0.0753 0.0521
0.8069 0.0753 0.0521
0.8096 0.0753 0.0521
0.0741 0.5446 0.0451
0.0741 0.5446 0.0451
0.0741 0.5446 0.0451
0.0741 0.5446 0.0451
0.0741 0.5446 0.0451
0.0741 0.5439 0.0451
0.0741 0.5406 0.0451
0.0741 0.5406 0.0451
0.0820 0.5378 0.0451
0.1385 0.5391 0.0432
0.2507 0.5424 0.0404
0.3758 0.5435 0.0374
0.4759 0.5406 0.0345
0.5526 0.5406 0.0318
0.6127 0.5340 0.0290
0.6624 0.5272 0.0285
0.7034 0.5183 0.0267
0.7395 0.5081 0.0253
0.7730 0.4958 0.0262
0.8053 0.4772 0.0285
0.8323 0.4495 0.0285
0.8488 0.4146 0.0338
0.8587 0.3672 0.0372
0.8518 0.2975 0.0436
0.8313 0.2118 0.0483
0.8068 0.1309 0.0488
0.7930 0.0843 0.0488
0.7930 0.0723 0.0488
0.8002 0.0746 0.0516
0.8042 0.0753 0.0521
0.8069 0.0753 0.0521
0.8096 0.0753 0.0521
0.0650 0.5907 0.0395
0.0650 0.5907 0.0395
0.0650 0.5907 0.0395
0.0650 0.5907 0.0395
0.0650 0.5907 0.0395
0.0650 0.5907 0.0395
0.0650 0.5900 0.0395
0.0650 0.5869 0.0395
0.0650 0.5869 0.0395
0.0800 0.5841 0.0395
0.1652 0.5854 0.0376
0.2980 0.5886 0.0336
0.4269 0.5896 0.0290
0.5231 0.5869 0.0262
0.5971 0.5869 0.0235
0.6524 0.5804 0.0207
0.6985 0.5738 0.0202
0.7393 0.5651 0.0184
0.7758 0.5552 0.0170
0.8087 0.5432 0.0178
0.8403 0.5253 0.0202
0.8644 0.5015 0.0202
0.8829 0.4675 0.0255
0.8913 0.4214 0.0309
0.8851 0.3513 0.0381
0.8625 0.2575 0.0447
0.8285 0.1585 0.0488
0.8012 0.0923 0.0488
0.7985 0.0763 0.0516
0.8034 0.0753 0.0521
0.8069 0.0753 0.0521
0.8096 0.0753 0.0521
0.0559 0.6356 0.0339
0.0559 0.6356 0.0339
0.0559 0.6356 0.0339
0.0559 0.6335 0.0339
0.0559 0.6327 0.0339
0.0559 0.6327 0.0339
0.0559 0.6327 0.0339
0.0559 0.6320 0.0339
0.0559 0.6290 0.0339
0.0595 0.6290 0.0362
0.0869 0.6281 0.0348
0.1996 0.6304 0.0309
0.3508 0.6327 0.0253
0.4788 0.6319 0.0207
0.5687 0.6319 0.0179
0.6374 0.6290 0.0151
0.6887 0.6226 0.0124
0.7329 0.6162 0.0104
0.7732 0.6077 0.0087
0.8096 0.5980 0.0087
0.8436 0.5863 0.0094
0.8699 0.5691 0.0094
0.8937 0.5489 0.0118
0.9087 0.5158 0.0153
0.9170 0.4727 0.0217
0.9130 0.4053 0.0300
0.8897 0.3078 0.0381
0.8488 0.1913 0.0463
0.8091 0.0999 0.0491
0.8042 0.0774 0.0519
0.8069 0.0753 0.0521
0.8096 0.0753 0.0521
0.0468 0.6749 0.0284
0.0468 0.6749 0.0284
0.0468 0.6749 0.0284
0.0468 0.6749 0.0284
0.0468 0.6735 0.0284
0.0468 0.6735 0.0284
0.0468 0.6731 0.0284
0.0468 0.6712 0.0284
0.0468 0.6705 0.0284
0.0471 0.6698 0.0285
0.0543 0.6680 0.0296
0.1026 0.6689 0.0284
0.2431 0.6712 0.0238
0.4038 0.6712 0.0170
0.5260 0.6712 0.0124
0.6098 0.6707 0.0076
0.6741 0.6676 0.0069
0.7234 0.6613 0.0041
0.7666 0.6551 0.0024
0.8061 0.6468 0.0024
0.8424 0.6373 0.0024
0.8710 0.6258 0.0024
0.8970 0.6118 0.0028
0.9170 0.5925 0.0055
0.9302 0.5620 0.0083
0.9392 0.5215 0.0144
0.9364 0.4565 0.0221
0.9127 0.3576 0.0332
0.8628 0.2192 0.0422
0.8210 0.1131 0.0491
0.8104 0.0814 0.0519
0.8103 0.0763 0.0521
0.0378 0.7116 0.0229
0.0378 0.7116 0.0229
0.0378 0.7116 0.0229
0.0378 0.7116 0.0229
0.0378 0.7116 0.0229
0.0378 0.7116 0.0229
0.0378 0.7112 0.0229
0.0378 0.7082 0.0229
0.0378 0.7080 0.0229
0.0378 0.7080 0.0229
0.0407 0.7079 0.0244
0.0518 0.7048 0.0232
0.1267 0.7071 0.0222
0.2902 0.7080 0.0156
0.4540 0.7080 0.0087
0.5703 0.7080 0.0032
0.6490 0.7057 0.0017
0.7074 0.7028 0.0017
0.7557 0.6967 0.0000
0.7982 0.6912 0.0000
0.8368 0.6841 0.0000
0.8676 0.6748 0.0000
0.8959 0.6646 0.0000
0.9181 0.6513 0.0003
0.9350 0.6323 0.0017
0.9482 0.6051 0.0034
0.9571 0.5663 0.0077
0.9554 0.5044 0.0166
0.9299 0.4005 0.0261
0.8809 0.2552 0.0396
0.8354 0.1324 0.0491
0.8167 0.0853 0.0519
0.0286 0.7476 0.0173
0.0286 0.7476 0.0173
0.0286 0.7476 0.0173
0.0286 0.7476 0.0173
0.0286 0.7476 0.0173
0.0286 0.7476 0.0173
0.0286 0.7472 0.0173
0.0286 0.7442 0.0173
0.0286 0.7441 0.0173
0.0286 0.7441 0.0173
0.0296 0.7441 0.0179
0.0346 0.7428 0.0204
0.0518 0.7406 0.0177
0.1561 0.7432 0.0147
0.3391 0.7441 0.0072
0.5021 0.7441 0.0014
0.6120 0.7419 0.0000
0.6842 0.7389 0.0000
0.7389 0.7359 0.0000
0.7863 0.7299 0.0000
0.8279 0.7264 0.0000
0.8620 0.7195 0.0000
0.8914 0.7104 0.0000
0.9158 0.7003 0.0000
0.9350 0.6873 0.0000
0.9497 0.6698 0.0000
0.9623 0.6453 0.0000
0.9706 0.6073 0.0043
0.9695 0.5502 0.0094
0.9472 0.4472 0.0213
0.9017 0.2976 0.0365
0.8506 0.1541 0.0491
0.0195 0.7830 0.0118
0.0195 0.7830 0.0118
0.0195 0.7830 0.0118
0.0195 0.7830 0.0118
0.0195 0.7830 0.0118
0.0195 0.7830 0.0118
0.0195 0.7826 0.0118
0.0195 0.7797 0.0118
0.0195 0.7795 0.0118
0.0195 0.7795 0.0118
0.0195 0.7795 0.0118
0.0204 0.7789 0.0124
0.0250 0.7761 0.0143
0.0535 0.7761 0.0118
0.1902 0.7787 0.0070
0.3855 0.7789 0.0014
0.5460 0.7774 0.0000
0.6482 0.7745 0.0000
0.7160 0.7715 0.0000
0.7703 0.7686 0.0000
0.8166 0.7628 0.0000
0.8548 0.7599 0.0000
0.8861 0.7524 0.0000
0.9114 0.7441 0.0000
0.9328 0.7343 0.0000
0.9492 0.7219 0.0000
0.9622 0.7067 0.0000
0.9726 0.6827 0.0000
0.9784 0.6487 0.0000
0.9804 0.5957 0.0050
0.9636 0.4967 0.0157
0.9227 0.3430 0.0323
0.0103 0.8176 0.0063
0.0103 0.8176 0.0063
0.0103 0.8176 0.0063
0.0103 0.8176 0.0063
0.0103 0.8176 0.0063
0.0103 0.8174 0.0063
0.0103 0.8172 0.0063
0.0103 0.8143 0.0063
0.0103 0.8142 0.0063
0.0103 0.8142 0.0063
0.0103 0.8142 0.0063
0.0103 0.8142 0.0063
0.0103 0.8134 0.0063
0.0121 0.8108 0.0063
0.0532 0.8108 0.0063
0.2202 0.8108 0.0014
0.4280 0.8108 0.0000
0.5843 0.8092 0.0000
0.6811 0.8063 0.0000
0.7480 0.8035 0.0000
0.8030 0.8005 0.0000
0.8436 0.7976 0.0000
0.8790 0.7923 0.0000
0.9062 0.7865 0.0000
0.9283 0.7793 0.0000
0.9467 0.7695 0.0000
0.9595 0.7575 0.0000
0.9725 0.7426 0.0000
0.9804 0.7220 0.0000
0.9860 0.6912 0.0000
0.9881 0.6418 0.0017
0.9770 0.5467 0.0103
0.0012 0.8490 0.0007
0.0012 0.8490 0.0007
0.0012 0.8490 0.0007
0.0012 0.8490 0.0007
0.0012 0.8490 0.0007
0.0012 0.8481 0.0007
0.0012 0.8461 0.0007
0.0012 0.8458 0.0007
0.0012 0.8457 0.0007
0.0012 0.8457 0.0007
0.0012 0.8457 0.0007
0.0012 0.8457 0.0007
0.0012 0.8449 0.0007
0.0012 0.8423 0.0007
0.0030 0.8423 0.0007
0.0565 0.8423 0.0007
0.2520 0.8423 0.0000
0.4689 0.8408 0.0000
0.6247 0.8379 0.0000
0.7182 0.8357 0.0000
0.7811 0.8350 0.0000
0.8302 0.8293 0.0000
0.8679 0.8265 0.0000
0.8991 0.8212 0.0000
0.9231 0.8155 0.0000
0.9431 0.8083 0.0000
0.9592 0.7993 0.0000
0.9699 0.7898 0.0000
0.9803 0.7752 0.0000
0.9860 0.7548 0.0000
0.9912 0.7247 0.0000
0.9945 0.6777 0.0003
0.0000 0.8752 0.0000
0.0000 0.8752 0.0000
0.0000 0.8752 0.0000
0.0000 0.8752 0.0000
0.0000 0.8752 0.0000
0.0000 0.8752 0.0000
0.0000 0.8743 0.0000
0.0000 0.8743 0.0000
0.0000 0.8743 0.0000
0.0000 0.8721 0.0000
0.0000 0.8719 0.0000
0.0000 0.8719 0.0000
0.0000 0.8719 0.0000
0.0000 0.8710 0.0000
0.0000 0.8710 0.0000
0.0024 0.8710 0.0000
0.0638 0.8689 0.0000
0.2805 0.8685 0.0000
0.5080 0.8666 0.0000
0.6652 0.8644 0.0000
0.7520 0.8643 0.0000
0.8108 0.8609 0.0000
0.8570 0.8578 0.0000
0.8904 0.8549 0.0000
0.9183 0.8497 0.0000
0.9401 0.8441 0.0000
0.9574 0.8375 0.0000
0.9696 0.8310 0.0000
0.9777 0.8191 0.0000
0.9859 0.8047 0.0000
0.9912 0.7847 0.0000
0.9952 0.7563 0.0000
0.0000 0.8965 0.0000
0.0000 0.8965 0.0000
0.0000 0.8965 0.0000
0.0000 0.8965 0.0000
0.0000 0.8965 0.0000
0.0000 0.8965 0.0000
0.0000 0.8965 0.0000
0.0000 0.8965 0.0000
0.0000 0.8965 0.0000
0.0000 0.8962 0.0000
0.0000 0.8951 0.0000
0.0000 0.8951 0.0000
0.0000 0.8951 0.0000
0.0000 0.8951 0.0000
0.0000 0.8951 0.0000
0.0000 0.8951 0.0000
0.0029 0.8931 0.0000
0.0743 0.8919 0.0000
0.3120 0.8919 0.0000
0.5503 0.8899 0.0000
0.7059 0.8886 0.0000
0.7827 0.8876 0.0000
0.8383 0.8848 0.0000
0.8798 0.8820 0.0000
0.9100 0.8792 0.0000
0.9348 0.8750 0.0000
0.9535 0.8704 0.0000
0.9678 0.8648 0.0000
0.9774 0.8574 0.0000
0.9851 0.8477 0.0000
0.9896 0.8334 0.0000
0.9946 0.8136 0.0000
0.0000 0.9160 0.0000
0.0000 0.9160 0.0000
0.0000 0.9160 0.0000
0.0000 0.9160 0.0000
0.0000 0.9160 0.0000
0.0000 0.9160 0.0000
0.0000 0.9160 0.0000
0.0000 0.9160 0.0000
0.0000 0.9160 0.0000
0.0000 0.9160 0.0000
0.0000 0.9160 0.0000
0.0000 0.9160 0.0000
0.0000 0.9160 0.0000
0.0000 0.9158 0.0000
0.0000 0.9145 0.0000
0.0000 0.9145 0.0000
0.0000 0.9140 0.0000
0.0034 0.9127 0.0000
0.0897 0.9127 0.0000
0.3519 0.9121 0.0000
0.5989 0.9095 0.0000
0.7389 0.9095 0.0000
0.8118 0.9085 0.0000
0.8626 0.9057 0.0000
0.9009 0.9029 0.0000
0.9279 0.9011 0.0000
0.9487 0.8983 0.0000
0.9652 0.8927 0.0000
0.9756 0.8886 0.0000
0.9838 0.8821 0.0000
0.9896 0.8730 0.0000
0.9933 0.8602 0.0000
0.0000 0.9335 0.0000
0.0000 0.9335 0.0000
0.0000 0.9335 0.0000
0.0000 0.9335 0.0000
0.0000 0.9335 0.0000
0.0000 0.9335 0.0000
0.0000 0.9335 0.0000
0.0000 0.9335 0.0000
0.0000 0.9335 0.0000
0.0000 0.9335 0.0000
0.0000 0.9335 0.0000
0.0000 0.9335 0.0000
0.0000 0.9335 0.0000
0.0000 0.9335 0.0000
0.0000 0.9315 0.0000
0.0000 0.9312 0.0000
0.0000 0.9312 0.0000
0.0000 0.9312 0.0000
0.0060 0.9312 0.0000
0.1147 0.9306 0.0000
0.4037 0.9279 0.0000
0.6369 0.9279 0.0000
0.7700 0.9279 0.0000
0.8387 0.9270 0.0000
0.8860 0.9243 0.0000
0.9200 0.9224 0.0000
0.9431 0.9219 0.0000
0.9617 0.9169 0.0000
0.9730 0.9141 0.0000
0.9812 0.9090 0.0000
0.9882 0.9035 0.0000
0.9933 0.8948 0.0000
0.0000 0.9473 0.0000
0.0000 0.9473 0.0000
0.0000 0.9473 0.0000
0.0000 0.9473 0.0000
0.0000 0.9473 0.0000
0.0000 0.9473 0.0000
0.0000 0.9473 0.0000
0.0000 0.9473 0.0000
0.0000 0.9473 0.0000
0.0000 0.9473 0.0000
0.0000 0.9473 0.0000
0.0000 0.9473 0.0000
0.0000 0.9469 0.0000
0.0000 0.9469 0.0000
0.0000 0.9469 0.0000
0.0000 0.9469 0.0000
0.0000 0.9469 0.0000
0.0000 0.9469 0.0000
0.0010 0.9469 0.0000
0.0141 0.9467 0.0000
0.1548 0.9441 0.0000
0.4486 0.9441 0.0000
0.6716 0.9441 0.0000
0.7989 0.9437 0.0000
0.8640 0.9427 0.0000
0.9074 0.9409 0.0000
0.9357 0.9404 0.0000
0.9565 0.9376 0.0000
0.9699 0.9354 0.0000
0.9790 0.9307 0.0000
0.9868 0.9270 0.0000
0.9929 0.9226 0.0000
0.0000 0.9612 0.0000
0.0000 0.9612 0.0000
0.0000 0.9612 0.0000
0.0000 0.9612 0.0000
0.0000 0.9612 0.0000
0.0000 0.9612 0.0000
0.0000 0.9612 0.0000
0.0000 0.9612 0.0000
0.0000 0.9612 0.0000
0.0000 0.9612 0.0000
0.0000 0.9612 0.0000
0.0000 0.9612 0.0000
0.0000 0.9604 0.0000
0.0000 0.9579 0.0000
0.0000 0.9579 0.0000
0.0000 0.9579 0.0000
0.0000 0.9579 0.0000
0.0000 0.9579 0.0000
0.0000 0.9579 0.0000
0.0040 0.9579 0.0000
0.0289 0.9579 0.0000
0.1984 0.9579 0.0000
0.4922 0.9579 0.0000
0.7055 0.9560 0.0000
0.8259 0.9547 0.0000
0.8861 0.9547 0.0000
0.9253 0.9542 0.0000
0.9513 0.9514 0.0000
0.9669 0.9514 0.0000
0.9781 0.9492 0.0000
0.9868 0.9463 0.0000
0.9921 0.9437 0.0000
0.0000 0.9695 0.0000
0.0000 0.9695 0.0000
0.0000 0.9695 0.0000
0.0000 0.9695 0.0000
