cave_demo/assets/luts/slog2sg_to_rec709_v01.cube
TITLE "Generate by Resolve"
LUT_3D_SIZE 33
0.000000 0.000000 0.000000
0.000000 0.000000 0.000000
0.000000 0.000000 0.000000
0.011765 0.000000 0.000000
0.047059 0.003922 0.003922
0.105882 0.007843 0.007843
0.172549 0.011765 0.011765
0.235294 0.019608 0.019608
0.290196 0.023529 0.023529
0.341176 0.027451 0.027451
0.388235 0.031373 0.031373
0.431373 0.035294 0.035294
0.470588 0.039216 0.039216
0.505882 0.039216 0.039216
0.541176 0.043137 0.043137
0.572549 0.047059 0.047059
0.603922 0.050980 0.050980
0.635294 0.050980 0.050980
0.662745 0.054902 0.054902
0.686275 0.054902 0.054902
0.701961 0.058824 0.058824
0.717647 0.058824 0.058824
0.729412 0.058824 0.058824
0.741176 0.058824 0.058824
0.749020 0.062745 0.062745
0.752941 0.062745 0.062745
0.756863 0.062745 0.062745
0.760784 0.062745 0.062745
0.764706 0.062745 0.062745
0.768628 0.062745 0.062745
0.772549 0.062745 0.062745
0.776471 0.062745 0.062745
0.776471 0.062745 0.062745
0.000000 0.000000 0.000000
0.000000 0.000000 0.000000
0.000000 0.000000 0.000000
0.011765 0.000000 0.000000
0.047059 0.003922 0.003922
0.105882 0.007843 0.007843
0.172549 0.011765 0.011765
0.235294 0.019608 0.019608
0.290196 0.023529 0.023529
0.341176 0.027451 0.027451
0.388235 0.031373 0.031373
0.431373 0.035294 0.035294
0.470588 0.039216 0.039216
0.505882 0.039216 0.039216
0.541176 0.043137 0.043137
0.572549 0.047059 0.047059
0.603922 0.050980 0.050980
0.635294 0.050980 0.050980
0.662745 0.054902 0.054902
0.686275 0.054902 0.054902
0.701961 0.058824 0.058824
0.717647 0.058824 0.058824
0.729412 0.058824 0.058824
0.741176 0.058824 0.058824
0.749020 0.062745 0.062745
0.752941 0.062745 0.062745
0.756863 0.062745 0.062745
0.760784 0.062745 0.062745
0.764706 0.062745 0.062745
0.768628 0.062745 0.062745
0.772549 0.062745 0.062745
0.776471 0.062745 0.062745
0.776471 0.062745 0.062745
0.000000 0.000000 0.000000
0.000000 0.000000 0.000000
0.000000 0.000000 0.000000
0.007843 0.000000 0.000000
0.043137 0.003922 0.003922
0.105882 0.007843 0.007843
0.172549 0.011765 0.011765
0.235294 0.019608 0.019608
0.290196 0.023529 0.023529
0.341176 0.027451 0.027451
0.388235 0.031373 0.031373
0.431373 0.035294 0.035294
0.470588 0.039216 0.039216
0.505882 0.039216 0.039216
0.541176 0.043137 0.043137
0.572549 0.047059 0.047059
0.603922 0.050980 0.050980
0.635294 0.050980 0.050980
0.662745 0.054902 0.054902
0.682353 0.054902 0.054902
0.701961 0.058824 0.058824
0.717647 0.058824 0.058824
0.729412 0.058824 0.058824
0.741176 0.058824 0.058824
0.749020 0.062745 0.062745
0.752941 0.062745 0.062745
0.756863 0.062745 0.062745
0.760784 0.062745 0.062745
0.764706 0.062745 0.062745
0.768628 0.062745 0.062745
0.772549 0.062745 0.062745
0.776471 0.062745 0.062745
0.776471 0.062745 0.062745
0.000000 0.007843 0.000000
0.000000 0.007843 0.000000
0.000000 0.007843 0.000000
0.007843 0.007843 0.000000
0.043137 0.007843 0.003922
0.101961 0.011765 0.007843
0.168627 0.011765 0.011765
0.231373 0.019608 0.019608
0.290196 0.023529 0.023529
0.341176 0.027451 0.027451
0.388235 0.031373 0.031373
0.427451 0.035294 0.035294
0.470588 0.039216 0.039216
0.505882 0.039216 0.039216
0.537255 0.043137 0.043137
0.572549 0.047059 0.047059
0.603922 0.050980 0.050980
0.635294 0.050980 0.050980
0.662745 0.054902 0.054902
0.682353 0.054902 0.054902
0.701961 0.058824 0.058824
0.717647 0.058824 0.058824
0.729412 0.058824 0.058824
0.741176 0.058824 0.058824
0.749020 0.062745 0.062745
0.752941 0.062745 0.062745
0.756863 0.062745 0.062745
0.760784 0.062745 0.062745
0.764706 0.062745 0.062745
0.768628 0.062745 0.062745
0.772549 0.062745 0.062745
0.776471 0.062745 0.062745
0.776471 0.062745 0.062745
0.007843 0.039216 0.007843
0.007843 0.039216 0.007843
0.007843 0.039216 0.007843
0.007843 0.039216 0.007843
0.035294 0.039216 0.007843
0.094118 0.035294 0.011765
0.164706 0.035294 0.015686
0.227451 0.031373 0.019608
0.282353 0.027451 0.023529
0.333333 0.027451 0.027451
0.384314 0.031373 0.031373
0.427451 0.035294 0.035294
0.466667 0.039216 0.039216
0.501961 0.039216 0.039216
0.537255 0.043137 0.043137
0.572549 0.047059 0.047059
0.603922 0.047059 0.047059
0.635294 0.050980 0.050980
0.662745 0.054902 0.054902
0.682353 0.054902 0.054902
0.701961 0.058824 0.058824
0.717647 0.058824 0.058824
0.729412 0.058824 0.058824
0.741176 0.058824 0.058824
0.749020 0.062745 0.062745
0.752941 0.062745 0.062745
0.756863 0.062745 0.062745
0.760784 0.062745 0.062745
0.764706 0.062745 0.062745
0.768628 0.062745 0.062745
0.772549 0.062745 0.062745
0.776471 0.062745 0.062745
0.776471 0.062745 0.062745
0.019608 0.098039 0.019608
0.019608 0.098039 0.019608
0.019608 0.098039 0.019608
0.019608 0.094118 0.019608
0.027451 0.090196 0.019608
0.086275 0.090196 0.023529
0.156863 0.090196 0.027451
0.227451 0.086275 0.031373
0.286275 0.078431 0.035294
0.337255 0.070588 0.035294
0.384314 0.058824 0.035294
0.427451 0.047059 0.035294
0.462745 0.039216 0.039216
0.501961 0.039216 0.039216
0.537255 0.043137 0.043137
0.568627 0.047059 0.047059
0.603922 0.047059 0.047059
0.635294 0.050980 0.050980
0.662745 0.054902 0.054902
0.682353 0.054902 0.054902
0.701961 0.058824 0.058824
0.717647 0.058824 0.058824
0.729412 0.058824 0.058824
0.741176 0.058824 0.058824
0.749020 0.062745 0.062745
0.752941 0.062745 0.062745
0.756863 0.062745 0.062745
0.760784 0.062745 0.062745
0.764706 0.062745 0.062745
0.768628 0.062745 0.062745
0.772549 0.062745 0.062745
0.776471 0.062745 0.062745
0.776471 0.062745 0.062745
0.035294 0.164706 0.035294
0.035294 0.164706 0.035294
0.035294 0.164706 0.035294
0.035294 0.160784 0.035294
0.035294 0.160784 0.035294
0.074510 0.156863 0.039216
0.149020 0.156863 0.043137
0.223529 0.152941 0.047059
0.290196 0.149020 0.050980
0.345098 0.141176 0.050980
0.396078 0.129412 0.054902
0.435294 0.113725 0.050980
0.474510 0.094118 0.050980
0.505882 0.070588 0.047059
0.537255 0.050980 0.043137
0.568627 0.047059 0.047059
0.600000 0.047059 0.047059
0.635294 0.050980 0.050980
0.658824 0.054902 0.054902
0.682353 0.054902 0.054902
0.701961 0.058824 0.058824
0.717647 0.058824 0.058824
0.729412 0.058824 0.058824
0.741176 0.058824 0.058824
0.749020 0.062745 0.062745
0.752941 0.062745 0.062745
0.756863 0.062745 0.062745
0.760784 0.062745 0.062745
0.764706 0.062745 0.062745
0.768628 0.062745 0.062745
0.772549 0.062745 0.062745
0.776471 0.062745 0.062745
0.776471 0.062745 0.062745
0.054902 0.231373 0.054902
0.054902 0.231373 0.054902
0.054902 0.227451 0.054902
0.050980 0.227451 0.050980
0.050980 0.227451 0.050980
0.062745 0.223529 0.050980
0.133333 0.223529 0.054902
0.215686 0.223529 0.062745
0.286275 0.219608 0.062745
0.352941 0.215686 0.066667
0.407843 0.207843 0.066667
0.454902 0.192157 0.066667
0.490196 0.176471 0.066667
0.521569 0.149020 0.062745
0.552941 0.117647 0.058824
0.576471 0.082353 0.054902
0.600000 0.054902 0.050980
0.631373 0.054902 0.050980
0.658824 0.054902 0.054902
0.682353 0.054902 0.054902
0.701961 0.058824 0.058824
0.717647 0.058824 0.058824
0.729412 0.058824 0.058824
0.741176 0.058824 0.058824
0.749020 0.062745 0.062745
0.752941 0.062745 0.062745
0.756863 0.062745 0.062745
0.760784 0.062745 0.062745
0.764706 0.062745 0.062745
0.768628 0.062745 0.062745
0.772549 0.062745 0.062745
0.776471 0.062745 0.062745
0.776471 0.062745 0.062745
0.066667 0.294118 0.066667
0.066667 0.294118 0.066667
0.066667 0.294118 0.066667
0.066667 0.294118 0.066667
0.066667 0.290196 0.066667
0.066667 0.290196 0.062745
0.105882 0.290196 0.066667
0.192157 0.290196 0.066667
0.278431 0.290196 0.062745
0.356863 0.286275 0.062745
0.423529 0.282353 0.062745
0.478431 0.270588 0.062745
0.525490 0.254902 0.062745
0.564706 0.235294 0.062745
0.592157 0.207843 0.062745
0.611765 0.172549 0.062745
0.623529 0.125490 0.062745
0.639216 0.078431 0.054902
0.658824 0.058824 0.054902
0.682353 0.054902 0.054902
0.701961 0.058824 0.058824
0.717647 0.058824 0.058824
0.729412 0.058824 0.058824
0.741176 0.058824 0.058824
0.749020 0.062745 0.062745
0.752941 0.062745 0.062745
0.756863 0.062745 0.062745
0.760784 0.062745 0.062745
0.764706 0.062745 0.062745
0.768628 0.062745 0.062745
0.772549 0.062745 0.062745
0.776471 0.062745 0.062745
0.776471 0.062745 0.062745
0.062745 0.360784 0.062745
0.062745 0.360784 0.062745
0.062745 0.360784 0.062745
0.062745 0.360784 0.062745
0.062745 0.356863 0.062745
0.062745 0.356863 0.062745
0.074510 0.352941 0.062745
0.149020 0.356863 0.062745
0.250980 0.356863 0.058824
0.345098 0.356863 0.058824
0.419608 0.352941 0.054902
0.486275 0.345098 0.054902
0.541176 0.333333 0.054902
0.588235 0.317647 0.054902
0.631373 0.298039 0.054902
0.662745 0.270588 0.058824
0.686275 0.231373 0.058824
0.690196 0.176471 0.062745
0.686275 0.109804 0.058824
0.686275 0.066667 0.054902
0.701961 0.058824 0.058824
0.717647 0.058824 0.058824
0.729412 0.058824 0.058824
0.741176 0.058824 0.058824
0.749020 0.062745 0.062745
0.752941 0.062745 0.062745
0.756863 0.062745 0.062745
0.760784 0.062745 0.062745
0.764706 0.062745 0.062745
0.768628 0.062745 0.062745
0.772549 0.062745 0.062745
0.776471 0.062745 0.062745
0.776471 0.062745 0.062745
0.058824 0.423529 0.058824
0.058824 0.423529 0.058824
0.058824 0.423529 0.058824
0.058824 0.423529 0.058824
0.058824 0.423529 0.058824
0.058824 0.419608 0.058824
0.062745 0.415686 0.058824
0.094118 0.415686 0.058824
0.200000 0.419608 0.054902
0.313726 0.419608 0.050980
0.403922 0.419608 0.050980
0.482353 0.411765 0.047059
0.545098 0.403922 0.047059
0.600000 0.396078 0.043137
0.647059 0.380392 0.043137
0.690196 0.360784 0.047059
0.725490 0.329412 0.047059
0.752941 0.290196 0.050980
0.760784 0.235294 0.058824
0.737255 0.156863 0.058824
0.717647 0.090196 0.058824
0.721569 0.062745 0.058824
0.729412 0.058824 0.058824
0.741176 0.058824 0.058824
0.749020 0.062745 0.062745
0.752941 0.062745 0.062745
0.756863 0.062745 0.062745
0.760784 0.062745 0.062745
0.764706 0.062745 0.062745
0.768628 0.062745 0.062745
0.772549 0.062745 0.062745
0.776471 0.062745 0.062745
0.776471 0.062745 0.062745
0.054902 0.482353 0.054902
0.054902 0.482353 0.054902
0.054902 0.482353 0.054902
0.054902 0.482353 0.054902
0.054902 0.482353 0.054902
0.054902 0.478431 0.054902
0.054902 0.478431 0.054902
0.062745 0.474510 0.054902
0.129412 0.478431 0.050980
0.258824 0.482353 0.047059
0.372549 0.478431 0.043137
0.462745 0.478431 0.039216
0.537255 0.470588 0.035294
0.600000 0.462745 0.035294
0.650980 0.450980 0.031373
0.698039 0.439216 0.031373
0.745098 0.419608 0.035294
0.784314 0.388235 0.035294
0.807843 0.349020 0.043137
0.819608 0.294118 0.047059
0.796079 0.207843 0.058824
0.756863 0.117647 0.058824
0.737255 0.070588 0.058824
0.737255 0.058824 0.058824
0.749020 0.062745 0.062745
0.752941 0.062745 0.062745
0.756863 0.062745 0.062745
0.760784 0.062745 0.062745
0.764706 0.062745 0.062745
0.768628 0.062745 0.062745
0.772549 0.062745 0.062745
0.776471 0.062745 0.062745
0.776471 0.062745 0.062745
0.047059 0.537255 0.047059
0.047059 0.537255 0.047059
0.047059 0.537255 0.047059
0.047059 0.537255 0.047059
0.047059 0.537255 0.047059
0.047059 0.537255 0.047059
0.047059 0.533333 0.047059
0.047059 0.533333 0.047059
0.062745 0.529412 0.047059
0.168627 0.533333 0.043137
0.313726 0.537255 0.035294
0.427451 0.533333 0.031373
0.517647 0.533333 0.027451
0.588235 0.525490 0.023529
0.647059 0.517647 0.023529
0.701961 0.505882 0.019608
0.749020 0.494118 0.019608
0.796079 0.474510 0.023529
0.831373 0.447059 0.023529
0.858824 0.407843 0.031373
0.866667 0.352941 0.039216
0.847059 0.262745 0.050980
0.792157 0.149020 0.058824
0.749020 0.078431 0.058824
0.745098 0.062745 0.062745
0.752941 0.062745 0.062745
0.756863 0.062745 0.062745
0.760784 0.062745 0.062745
0.764706 0.062745 0.062745
0.768628 0.062745 0.062745
0.772549 0.062745 0.062745
0.776471 0.062745 0.062745
0.776471 0.062745 0.062745
0.039216 0.592157 0.039216
0.039216 0.592157 0.039216
0.039216 0.592157 0.039216
0.039216 0.588235 0.039216
0.039216 0.588235 0.039216
0.039216 0.588235 0.039216
0.039216 0.588235 0.039216
0.039216 0.584314 0.039216
0.043137 0.584314 0.043137
0.074510 0.584314 0.039216
0.219608 0.588235 0.031373
0.372549 0.588235 0.023529
0.482353 0.588235 0.019608
0.568627 0.584314 0.015686
0.635294 0.576471 0.011765
0.694118 0.568627 0.007843
0.749020 0.556863 0.007843
0.800000 0.545098 0.007843
0.839216 0.525490 0.007843
0.874510 0.501961 0.011765
0.894118 0.462745 0.015686
0.905882 0.411765 0.027451
0.890196 0.321569 0.039216
0.823529 0.184314 0.054902
0.760784 0.086275 0.058824
0.752941 0.062745 0.062745
0.756863 0.062745 0.062745
0.760784 0.062745 0.062745
0.764706 0.062745 0.062745
0.768628 0.062745 0.062745
0.772549 0.062745 0.062745
0.776471 0.062745 0.062745
0.776471 0.062745 0.062745
0.031373 0.639216 0.031373
0.031373 0.639216 0.031373
0.031373 0.639216 0.031373
0.031373 0.639216 0.031373
0.031373 0.639216 0.031373
0.031373 0.639216 0.031373
0.031373 0.635294 0.031373
0.031373 0.635294 0.031373
0.031373 0.635294 0.031373
0.039216 0.631373 0.031373
0.101961 0.635294 0.031373
0.274510 0.635294 0.019608
0.427451 0.635294 0.011765
0.533333 0.635294 0.003922
0.615686 0.631373 0.003922
0.682353 0.623529 0.000000
0.741176 0.615686 0.000000
0.796079 0.603922 0.000000
0.839216 0.592157 0.000000
0.878431 0.576471 0.000000
0.905882 0.552941 0.003922
0.925490 0.517647 0.007843
0.937255 0.466667 0.015686
0.925490 0.380392 0.031373
0.847059 0.219608 0.047059
0.780392 0.101961 0.058824
0.760784 0.066667 0.062745
0.760784 0.062745 0.062745
0.764706 0.062745 0.062745
0.768628 0.062745 0.062745
0.772549 0.062745 0.062745
0.776471 0.062745 0.062745
0.776471 0.062745 0.062745
0.023529 0.686275 0.023529
0.023529 0.686275 0.023529
0.023529 0.686275 0.023529
0.023529 0.686275 0.023529
0.023529 0.686275 0.023529
0.023529 0.686275 0.023529
0.023529 0.682353 0.023529
0.023529 0.682353 0.023529
0.023529 0.682353 0.023529
0.027451 0.682353 0.027451
0.039216 0.678431 0.023529
0.137255 0.682353 0.019608
0.329412 0.682353 0.007843
0.482353 0.682353 0.000000
0.584314 0.678431 0.000000
0.658824 0.674510 0.000000
0.725490 0.666667 0.000000
0.784314 0.662745 0.000000
0.831373 0.650980 0.000000
0.874510 0.639216 0.000000
0.905882 0.623529 0.000000
0.929412 0.600000 0.000000
0.949020 0.568627 0.000000
0.960784 0.517647 0.007843
0.952941 0.435294 0.019608
0.878431 0.266667 0.043137
0.803922 0.125490 0.058824
0.768628 0.066667 0.062745
0.764706 0.062745 0.062745
0.768628 0.062745 0.062745
0.772549 0.062745 0.062745
0.776471 0.062745 0.062745
0.776471 0.062745 0.062745
0.015686 0.733333 0.015686
0.015686 0.733333 0.015686
0.015686 0.733333 0.015686
0.015686 0.733333 0.015686
0.015686 0.733333 0.015686
0.015686 0.733333 0.015686
0.015686 0.729412 0.015686
0.015686 0.729412 0.015686
0.015686 0.729412 0.015686
0.015686 0.729412 0.015686
0.019608 0.725490 0.019608
0.043137 0.725490 0.015686
0.176471 0.729412 0.007843
0.384314 0.729412 0.000000
0.533333 0.725490 0.000000
0.627451 0.721569 0.000000
0.701961 0.717647 0.000000
0.768628 0.709804 0.000000
0.823529 0.705882 0.000000
0.866667 0.694118 0.000000
0.901961 0.682353 0.000000
0.929412 0.666667 0.000000
0.949020 0.647059 0.000000
0.964706 0.615686 0.000000
0.972549 0.568627 0.000000
0.972549 0.490196 0.011765
0.913726 0.321569 0.035294
0.827451 0.149020 0.058824
0.772549 0.070588 0.062745
0.768628 0.062745 0.062745
0.772549 0.062745 0.062745
0.776471 0.062745 0.062745
0.776471 0.062745 0.062745
0.007843 0.780392 0.007843
0.007843 0.780392 0.007843
0.007843 0.780392 0.007843
0.007843 0.780392 0.007843
0.007843 0.780392 0.007843
0.007843 0.780392 0.007843
0.007843 0.776471 0.007843
0.007843 0.776471 0.007843
0.007843 0.776471 0.007843
0.007843 0.776471 0.007843
0.007843 0.776471 0.007843
0.007843 0.772549 0.007843
0.043137 0.772549 0.007843
0.207843 0.772549 0.000000
0.435294 0.772549 0.000000
0.576471 0.768628 0.000000
0.670588 0.764706 0.000000
0.749020 0.760784 0.000000
0.807843 0.756863 0.000000
0.858824 0.749020 0.000000
0.894118 0.741176 0.000000
0.925490 0.729412 0.000000
0.945098 0.713726 0.000000
0.964706 0.694118 0.000000
0.976471 0.666667 0.000000
0.984314 0.623529 0.000000
0.984314 0.549020 0.003922
0.945098 0.380392 0.027451
0.854902 0.188235 0.050980
0.776471 0.078431 0.062745
0.772549 0.062745 0.062745
0.776471 0.062745 0.062745
0.776471 0.062745 0.062745
0.000000 0.823529 0.000000
0.000000 0.823529 0.000000
0.000000 0.823529 0.000000
0.000000 0.823529 0.000000
0.000000 0.823529 0.000000
0.000000 0.819608 0.000000
0.000000 0.819608 0.000000
0.000000 0.819608 0.000000
0.000000 0.819608 0.000000
0.000000 0.819608 0.000000
0.000000 0.819608 0.000000
0.000000 0.815686 0.000000
0.000000 0.815686 0.000000
0.047059 0.815686 0.000000
0.247059 0.815686 0.000000
0.486275 0.811765 0.000000
0.627451 0.807843 0.000000
0.717647 0.807843 0.000000
0.788235 0.800000 0.000000
0.843137 0.796079 0.000000
0.886275 0.788235 0.000000
0.917647 0.780392 0.000000
0.945098 0.768628 0.000000
0.960784 0.756863 0.000000
0.976471 0.737255 0.000000
0.984314 0.709804 0.000000
0.992157 0.666667 0.000000
0.996078 0.596078 0.000000
0.964706 0.439216 0.019608
0.874510 0.219608 0.047059
0.780392 0.078431 0.062745
0.776471 0.062745 0.062745
0.776471 0.062745 0.062745
0.000000 0.858824 0.000000
0.000000 0.858824 0.000000
0.000000 0.858824 0.000000
0.000000 0.858824 0.000000
0.000000 0.858824 0.000000
0.000000 0.858824 0.000000
0.000000 0.858824 0.000000
0.000000 0.858824 0.000000
0.000000 0.854902 0.000000
0.000000 0.854902 0.000000
0.000000 0.854902 0.000000
0.000000 0.854902 0.000000
0.000000 0.854902 0.000000
0.000000 0.854902 0.000000
0.054902 0.850980 0.000000
0.282353 0.850980 0.000000
0.541176 0.847059 0.000000
0.674510 0.847059 0.000000
0.760784 0.843137 0.000000
0.827451 0.839216 0.000000
0.874510 0.835294 0.000000
0.913726 0.827451 0.000000
0.941177 0.819608 0.000000
0.960784 0.811765 0.000000
0.972549 0.796079 0.000000
0.984314 0.776471 0.000000
0.992157 0.749020 0.000000
0.996078 0.709804 0.000000
1.000000 0.643137 0.000000
0.980392 0.494118 0.015686
0.890196 0.254902 0.043137
0.784314 0.078431 0.062745
0.776471 0.066667 0.062745
0.000000 0.886275 0.000000
0.000000 0.886275 0.000000
0.000000 0.886275 0.000000
0.000000 0.886275 0.000000
0.000000 0.886275 0.000000
0.000000 0.886275 0.000000
0.000000 0.886275 0.000000
0.000000 0.886275 0.000000
0.000000 0.886275 0.000000
0.000000 0.886275 0.000000
0.000000 0.886275 0.000000
0.000000 0.886275 0.000000
0.000000 0.886275 0.000000
0.000000 0.886275 0.000000
0.000000 0.882353 0.000000
0.066667 0.882353 0.000000
0.325490 0.882353 0.000000
0.600000 0.878431 0.000000
0.717647 0.878431 0.000000
0.800000 0.874510 0.000000
0.858824 0.870588 0.000000
0.901961 0.866667 0.000000
0.933333 0.862745 0.000000
0.956863 0.854902 0.000000
0.972549 0.847059 0.000000
0.984314 0.835294 0.000000
0.988235 0.815686 0.000000
0.996078 0.788235 0.000000
1.000000 0.752941 0.000000
1.000000 0.686275 0.000000
0.992157 0.545098 0.011765
0.905882 0.290196 0.035294
0.898039 0.270588 0.039216
0.000000 0.913726 0.000000
0.000000 0.913726 0.000000
0.000000 0.913726 0.000000
0.000000 0.913726 0.000000
0.000000 0.913726 0.000000
0.000000 0.913726 0.000000
0.000000 0.913726 0.000000
0.000000 0.913726 0.000000
0.000000 0.913726 0.000000
0.000000 0.913726 0.000000
0.000000 0.913726 0.000000
0.000000 0.913726 0.000000
0.000000 0.909804 0.000000
0.000000 0.909804 0.000000
0.000000 0.909804 0.000000
0.000000 0.909804 0.000000
0.086275 0.909804 0.000000
0.388235 0.905882 0.000000
0.647059 0.905882 0.000000
0.760784 0.905882 0.000000
0.835294 0.901961 0.000000
0.890196 0.898039 0.000000
0.925490 0.898039 0.000000
0.952941 0.890196 0.000000
0.968628 0.886275 0.000000
0.980392 0.878431 0.000000
0.988235 0.866667 0.000000
0.996078 0.850980 0.000000
1.000000 0.827451 0.000000
1.000000 0.792157 0.000000
1.000000 0.729412 0.000000
1.000000 0.596078 0.007843
1.000000 0.588235 0.007843
0.000000 0.933333 0.000000
0.000000 0.933333 0.000000
0.000000 0.933333 0.000000
0.000000 0.933333 0.000000
0.000000 0.933333 0.000000
0.000000 0.933333 0.000000
0.000000 0.933333 0.000000
0.000000 0.933333 0.000000
0.000000 0.933333 0.000000
0.000000 0.933333 0.000000
0.000000 0.933333 0.000000
0.000000 0.933333 0.000000
0.000000 0.933333 0.000000
0.000000 0.933333 0.000000
0.000000 0.933333 0.000000
0.000000 0.933333 0.000000
0.003922 0.933333 0.000000
0.125490 0.929412 0.000000
0.439216 0.929412 0.000000
0.690196 0.929412 0.000000
0.800000 0.929412 0.000000
0.870588 0.925490 0.000000
0.913726 0.925490 0.000000
0.945098 0.921569 0.000000
0.964706 0.917647 0.000000
0.976471 0.909804 0.000000
0.988235 0.905882 0.000000
0.996078 0.894118 0.000000
1.000000 0.882353 0.000000
1.000000 0.862745 0.000000
1.000000 0.827451 0.000000
1.000000 0.772549 0.000000
1.000000 0.768628 0.000000
0.000000 0.952941 0.000000
0.000000 0.952941 0.000000
0.000000 0.952941 0.000000
0.000000 0.952941 0.000000
0.000000 0.952941 0.000000
0.000000 0.952941 0.000000
0.000000 0.952941 0.000000
0.000000 0.952941 0.000000
0.000000 0.952941 0.000000
0.000000 0.952941 0.000000
0.000000 0.952941 0.000000
0.000000 0.949020 0.000000
0.000000 0.949020 0.000000
0.000000 0.949020 0.000000
0.000000 0.949020 0.000000
0.000000 0.949020 0.000000
0.000000 0.949020 0.000000
0.015686 0.949020 0.000000
0.164706 0.949020 0.000000
0.490196 0.949020 0.000000
0.733333 0.945098 0.000000
0.835294 0.945098 0.000000
0.898039 0.945098 0.000000
0.937255 0.941177 0.000000
0.960784 0.941177 0.000000
0.976471 0.937255 0.000000
0.988235 0.933333 0.000000
0.992157 0.929412 0.000000
1.000000 0.921569 0.000000
1.000000 0.909804 0.000000
1.000000 0.890196 0.000000
1.000000 0.862745 0.000000
1.000000 0.862745 0.000000
0.000000 0.964706 0.000000
0.000000 0.964706 0.000000
0.000000 0.964706 0.000000
0.000000 0.964706 0.000000
0.000000 0.964706 0.000000
0.000000 0.964706 0.000000
0.000000 0.964706 0.000000
0.000000 0.964706 0.000000
0.000000 0.964706 0.000000
0.000000 0.964706 0.000000
0.000000 0.964706 0.000000
0.000000 0.964706 0.000000
0.000000 0.964706 0.000000
0.000000 0.964706 0.000000
0.000000 0.964706 0.000000
0.000000 0.964706 0.000000
0.000000 0.964706 0.000000
0.000000 0.964706 0.000000
0.023529 0.964706 0.000000
0.203922 0.964706 0.000000
0.545098 0.960784 0.000000
0.772549 0.960784 0.000000
0.870588 0.960784 0.000000
0.921569 0.960784 0.000000
0.952941 0.956863 0.000000
0.972549 0.956863 0.000000
0.984314 0.952941 0.000000
0.992157 0.949020 0.000000
1.000000 0.945098 0.000000
1.000000 0.941177 0.000000
1.000000 0.929412 0.000000
1.000000 0.917647 0.000000
1.000000 0.913726 0.000000
0.000000 0.976471 0.000000
0.000000 0.976471 0.000000
0.000000 0.976471 0.000000
0.000000 0.976471 0.000000
0.000000 0.976471 0.000000
0.000000 0.976471 0.000000
0.000000 0.976471 0.000000
0.000000 0.976471 0.000000
0.000000 0.976471 0.000000
0.000000 0.976471 0.000000
0.000000 0.976471 0.000000
0.000000 0.976471 0.000000
0.000000 0.976471 0.000000
0.000000 0.976471 0.000000
0.000000 0.976471 0.000000
0.000000 0.976471 0.000000
0.000000 0.976471 0.000000
0.000000 0.976471 0.000000
0.000000 0.976471 0.000000
0.031373 0.976471 0.000000
0.247059 0.976471 0.000000
0.596078 0.972549 0.000000
0.811765 0.972549 0.000000
0.898039 0.972549 0.000000
0.941177 0.972549 0.000000
0.968628 0.972549 0.000000
0.980392 0.968628 0.000000
0.992157 0.968628 0.000000
0.996078 0.964706 0.000000
1.000000 0.960784 0.000000
1.000000 0.956863 0.000000
1.000000 0.949020 0.000000
1.000000 0.949020 0.000000
0.000000 0.984314 0.000000
0.000000 0.984314 0.000000
0.000000 0.984314 0.000000
0.000000 0.984314 0.000000
0.000000 0.984314 0.000000
0.000000 0.984314 0.000000
0.000000 0.984314 0.000000
0.000000 0.984314 0.000000
0.000000 0.984314 0.000000
0.000000 0.984314 0.000000
0.000000 0.984314 0.000000
0.000000 0.984314 0.000000
0.000000 0.984314 0.000000
0.000000 0.984314 0.000000
0.000000 0.984314 0.000000
0.000000 0.984314 0.000000
0.000000 0.984314 0.000000
0.000000 0.984314 0.000000
0.000000 0.984314 0.000000
0.000000 0.984314 0.000000
0.039216 0.984314 0.000000
0.286275 0.984314 0.000000
0.647059 0.984314 0.000000
0.847059 0.984314 0.000000
0.921569 0.980392 0.000000
0.956863 0.980392 0.000000
0.976471 0.980392 0.000000
0.988235 0.980392 0.000000
0.996078 0.976471 0.000000
