cave_demo/assets/luts/slog2sg_to_rec709_STARCentral.002.cube
TITLE "yummySLOG_lut"
LUT_3D_SIZE 5
DOMAIN_MIN 0.000000 0.000000 0.000000
DOMAIN_MAX 0.903226 0.903226 0.903226
0.0000 0.0000 0.0000
0.2260 0.0139 0.0096
0.5535 0.0467 0.0322
0.7274 0.0654 0.0452
0.8009 0.0746 0.0516
0.0474 0.1929 0.0287
0.1964 0.1838 0.0351
0.5570 0.1114 0.0418
0.7244 0.0654 0.0452
0.8009 0.0746 0.0516
0.0650 0.5907 0.0395
0.0650 0.5869 0.0395
0.5971 0.5869 0.0235
0.8644 0.5015 0.0202
0.7985 0.0763 0.0516
0.0012 0.8490 0.0007
0.0012 0.8458 0.0007
0.0030 0.8423 0.0007
0.8302 0.8293 0.0000
0.9803 0.7752 0.0000
0.0000 0.9695 0.0000
0.0000 0.9695 0.0000
0.0000 0.9689 0.0000
0.0383 0.9689 0.0000
0.9617 0.9625 0.0000
0.0000 0.0000 0.0938
0.2260 0.0185 0.1069
0.5535 0.0469 0.1174
0.7276 0.0657 0.1011
0.8009 0.0746 0.0520
0.0474 0.1748 0.1136
0.1865 0.1657 0.1171
0.5533 0.0933 0.1173
0.7274 0.0657 0.0912
0.8009 0.0746 0.0520
0.0650 0.5904 0.0848
0.0650 0.5868 0.0816
0.5934 0.5794 0.0559
0.8642 0.4937 0.0274
0.7985 0.0760 0.0516
0.0012 0.8458 0.0007
0.0012 0.8457 0.0007
0.0030 0.8423 0.0007
0.8302 0.8293 0.0000
0.9803 0.7719 0.0000
0.0000 0.9695 0.0000
0.0000 0.9695 0.0000
0.0000 0.9689 0.0000
0.0375 0.9689 0.0000
0.9617 0.9625 0.0000
0.0157 0.0138 0.3511
0.1967 0.0234 0.3638
0.5573 0.0561 0.3900
0.7342 0.0794 0.4029
0.8199 0.0800 0.3816
0.0317 0.0834 0.3638
0.1256 0.0653 0.3639
0.5460 0.0608 0.3896
0.7340 0.0753 0.3985
0.8196 0.0800 0.3771
0.0597 0.5754 0.4841
0.0597 0.5714 0.4838
0.5861 0.5599 0.4888
0.8642 0.4573 0.4750
0.8170 0.0807 0.3557
0.0000 0.8427 0.3983
0.0004 0.8426 0.3981
0.0020 0.8392 0.3898
0.8270 0.8258 0.3719
0.9777 0.7653 0.2867
0.0000 0.9689 0.0049
0.0000 0.9689 0.0047
0.0000 0.9689 0.0017
0.0262 0.9689 0.0011
0.9617 0.9625 0.0002
0.0215 0.0189 0.5781
0.0551 0.0234 0.5784
0.5457 0.0650 0.6194
0.7465 0.0800 0.6499
0.8418 0.0800 0.6682
0.0215 0.0189 0.5740
0.0266 0.0189 0.5740
0.5342 0.0608 0.6150
0.7433 0.0800 0.6455
0.8416 0.0800 0.6682
0.0702 0.4894 0.7517
0.0704 0.4815 0.7477
0.5410 0.4573 0.7798
0.8175 0.2723 0.7441
0.8414 0.0800 0.6638
0.0000 0.8323 0.7966
0.0000 0.8293 0.7966
0.0006 0.8258 0.7966
0.8207 0.8091 0.7927
0.9774 0.7408 0.7850
0.0000 0.9689 0.7365
0.0000 0.9689 0.7365
0.0000 0.9689 0.7330
0.0049 0.9657 0.7288
0.9612 0.9624 0.7158
0.0268 0.0236 0.7061
0.0268 0.0236 0.7061
0.4566 0.0605 0.7391
0.7434 0.0800 0.7827
0.8512 0.0753 0.8139
0.0268 0.0236 0.7056
0.0268 0.0236 0.7056
0.4355 0.0565 0.7351
0.7401 0.0800 0.7823
0.8512 0.0753 0.8139
0.0272 0.0253 0.7058
0.0272 0.0253 0.7058
0.2178 0.0387 0.7185
0.7265 0.0800 0.7783
0.8483 0.0753 0.8139
0.0012 0.7752 0.9596
0.0012 0.7719 0.9567
0.0058 0.7680 0.9565
0.7922 0.7441 0.9602
0.9769 0.6115 0.9569
0.0000 0.9625 0.9564
0.0000 0.9625 0.9564
0.0000 0.9625 0.9535
0.0039 0.9624 0.9535
0.9582 0.9555 0.9535
